ncols 120
nrows 90
xllcorner -5
yllcorner -5
cellsize 1.5
NODATA_value -9999
26.287 26.328 26.370 26.412 26.456 26.502 26.549 26.597 26.646 26.697 26.749 26.802 26.857 26.914 26.971 27.030 27.090 27.151 27.213 27.275 27.338 27.402 27.465 27.529 27.592 27.655 27.717 27.778 27.838 27.896 27.953 28.008 28.061 28.111 28.159 28.204 28.246 28.285 28.322 28.355 28.385 28.412 28.435 28.456 28.474 28.489 28.501 28.511 28.518 28.523 28.526 28.528 28.528 28.527 28.525 28.522 28.519 28.515 28.512 28.508 28.505 28.503 28.501 28.500 28.500 28.502 28.504 28.508 28.513 28.519 28.527 28.536 28.547 28.559 28.572 28.587 28.603 28.620 28.639 28.658 28.678 28.700 28.722 28.745 28.769 28.794 28.819 28.845 28.871 28.898 28.925 28.952 28.980 29.008 29.037 29.065 29.094 29.123 29.152 29.182 29.211 29.241 29.270 29.300 29.329 29.359 29.389 29.419 29.449 29.478 29.508 29.538 29.568 29.598 29.628 29.658 29.688 29.718 29.748 29.778
26.283 26.325 26.368 26.413 26.459 26.506 26.555 26.605 26.657 26.711 26.766 26.823 26.881 26.941 27.002 27.065 27.129 27.194 27.260 27.327 27.394 27.462 27.530 27.598 27.666 27.733 27.799 27.865 27.928 27.991 28.051 28.109 28.165 28.218 28.268 28.315 28.359 28.400 28.437 28.470 28.500 28.527 28.550 28.569 28.585 28.598 28.608 28.615 28.619 28.621 28.621 28.619 28.615 28.609 28.603 28.596 28.588 28.580 28.572 28.564 28.557 28.550 28.544 28.539 28.535 28.533 28.531 28.532 28.533 28.537 28.542 28.548 28.556 28.566 28.577 28.590 28.604 28.619 28.636 28.654 28.673 28.693 28.715 28.737 28.760 28.784 28.808 28.834 28.859 28.886 28.912 28.940 28.967 28.995 29.023 29.052 29.080 29.109 29.138 29.167 29.197 29.226 29.256 29.285 29.315 29.344 29.374 29.404 29.434 29.464 29.493 29.523 29.553 29.583 29.613 29.643 29.673 29.703 29.733 29.763
26.280 26.323 26.368 26.415 26.463 26.512 26.564 26.617 26.672 26.728 26.787 26.847 26.909 26.973 27.038 27.105 27.173 27.243 27.313 27.385 27.457 27.530 27.603 27.676 27.749 27.821 27.892 27.962 28.030 28.096 28.161 28.222 28.281 28.337 28.390 28.440 28.485 28.527 28.565 28.599 28.629 28.655 28.677 28.695 28.710 28.720 28.727 28.731 28.732 28.731 28.726 28.720 28.712 28.702 28.691 28.679 28.666 28.653 28.640 28.627 28.615 28.603 28.593 28.583 28.575 28.568 28.563 28.559 28.558 28.557 28.559 28.563 28.568 28.575 28.584 28.594 28.606 28.620 28.635 28.651 28.669 28.688 28.708 28.729 28.751 28.774 28.798 28.823 28.848 28.874 28.900 28.927 28.954 28.982 29.010 29.038 29.067 29.095 29.124 29.153 29.183 29.212 29.241 29.271 29.300 29.330 29.360 29.389 29.419 29.449 29.479 29.508 29.538 29.568 29.598 29.628 29.658 29.688 29.718 29.748
26.277 26.323 26.370 26.418 26.469 26.521 26.575 26.631 26.689 26.749 26.811 26.875 26.941 27.009 27.078 27.150 27.223 27.298 27.373 27.450 27.528 27.606 27.685 27.763 27.841 27.918 27.995 28.070 28.143 28.214 28.282 28.348 28.411 28.470 28.526 28.578 28.625 28.669 28.708 28.742 28.772 28.798 28.819 28.835 28.848 28.856 28.860 28.861 28.858 28.852 28.844 28.833 28.820 28.805 28.789 28.771 28.753 28.735 28.716 28.698 28.681 28.664 28.648 28.634 28.621 28.609 28.599 28.592 28.586 28.582 28.580 28.580 28.582 28.586 28.592 28.600 28.610 28.622 28.635 28.649 28.666 28.683 28.702 28.722 28.744 28.766 28.789 28.813 28.837 28.863 28.889 28.915 28.942 28.969 28.997 29.025 29.053 29.082 29.111 29.139 29.169 29.198 29.227 29.256 29.286 29.315 29.345 29.375 29.404 29.434 29.464 29.494 29.524 29.553 29.583 29.613 29.643 29.673 29.703 29.733
26.276 26.324 26.373 26.424 26.476 26.531 26.588 26.647 26.709 26.773 26.838 26.907 26.977 27.050 27.124 27.201 27.279 27.359 27.441 27.523 27.607 27.691 27.775 27.860 27.944 28.027 28.109 28.189 28.268 28.344 28.417 28.487 28.554 28.617 28.676 28.730 28.780 28.825 28.865 28.900 28.930 28.955 28.975 28.990 29.000 29.006 29.007 29.004 28.997 28.987 28.974 28.958 28.939 28.919 28.897 28.874 28.850 28.826 28.801 28.777 28.754 28.731 28.710 28.690 28.672 28.655 28.641 28.628 28.618 28.610 28.604 28.600 28.599 28.600 28.603 28.609 28.616 28.625 28.636 28.649 28.664 28.680 28.698 28.716 28.737 28.758 28.780 28.803 28.827 28.852 28.877 28.903 28.930 28.957 28.984 29.012 29.040 29.068 29.097 29.126 29.155 29.184 29.213 29.242 29.272 29.301 29.331 29.360 29.390 29.420 29.449 29.479 29.509 29.539 29.569 29.598 29.628 29.658 29.688 29.718
26.277 26.326 26.377 26.431 26.486 26.544 26.604 26.667 26.732 26.800 26.870 26.943 27.018 27.096 27.176 27.258 27.342 27.428 27.515 27.604 27.694 27.785 27.876 27.966 28.057 28.146 28.234 28.321 28.405 28.487 28.565 28.640 28.711 28.778 28.840 28.898 28.950 28.997 29.038 29.074 29.104 29.128 29.147 29.160 29.168 29.170 29.168 29.161 29.150 29.135 29.117 29.095 29.071 29.045 29.016 28.987 28.957 28.926 28.895 28.865 28.835 28.806 28.779 28.753 28.729 28.707 28.687 28.669 28.654 28.642 28.632 28.624 28.619 28.617 28.617 28.619 28.624 28.631 28.640 28.650 28.663 28.678 28.694 28.711 28.730 28.751 28.772 28.794 28.818 28.842 28.867 28.892 28.918 28.945 28.972 28.999 29.027 29.055 29.084 29.112 29.141 29.170 29.199 29.228 29.258 29.287 29.316 29.346 29.375 29.405 29.435 29.464 29.494 29.524 29.554 29.584 29.613 29.643 29.673 29.703
26.279 26.330 26.384 26.440 26.498 26.559 26.623 26.689 26.759 26.831 26.906 26.983 27.064 27.147 27.233 27.321 27.411 27.504 27.598 27.693 27.790 27.888 27.986 28.084 28.181 28.277 28.372 28.465 28.555 28.643 28.727 28.807 28.883 28.954 29.020 29.081 29.135 29.184 29.227 29.263 29.293 29.317 29.334 29.345 29.351 29.350 29.344 29.333 29.317 29.297 29.273 29.246 29.215 29.182 29.147 29.111 29.074 29.036 28.998 28.961 28.924 28.889 28.854 28.822 28.792 28.764 28.738 28.715 28.695 28.678 28.663 28.651 28.642 28.636 28.633 28.632 28.634 28.638 28.645 28.653 28.664 28.677 28.691 28.708 28.725 28.744 28.765 28.786 28.809 28.832 28.857 28.882 28.907 28.933 28.960 28.987 29.015 29.043 29.071 29.099 29.128 29.157 29.185 29.214 29.244 29.273 29.302 29.332 29.361 29.391 29.420 29.450 29.480 29.509 29.539 29.569 29.599 29.629 29.658 29.688
26.282 26.335 26.392 26.451 26.512 26.577 26.644 26.715 26.789 26.865 26.945 27.028 27.114 27.203 27.295 27.390 27.487 27.587 27.688 27.791 27.895 28.000 28.106 28.211 28.316 28.420 28.522 28.622 28.719 28.813 28.903 28.989 29.070 29.146 29.216 29.280 29.337 29.388 29.432 29.469 29.499 29.522 29.538 29.547 29.550 29.546 29.536 29.520 29.499 29.474 29.443 29.410 29.372 29.332 29.290 29.247 29.202 29.156 29.111 29.066 29.022 28.979 28.938 28.899 28.862 28.827 28.795 28.767 28.741 28.718 28.698 28.682 28.669 28.659 28.651 28.647 28.646 28.647 28.651 28.658 28.666 28.677 28.690 28.705 28.721 28.739 28.758 28.779 28.801 28.823 28.847 28.872 28.897 28.922 28.949 28.976 29.003 29.030 29.058 29.086 29.115 29.143 29.172 29.201 29.230 29.259 29.288 29.318 29.347 29.377 29.406 29.436 29.465 29.495 29.525 29.554 29.584 29.614 29.644 29.674
26.286 26.342 26.402 26.464 26.529 26.597 26.669 26.744 26.822 26.904 26.989 27.078 27.170 27.265 27.364 27.466 27.570 27.677 27.786 27.897 28.009 28.123 28.236 28.350 28.463 28.575 28.685 28.792 28.897 28.998 29.094 29.186 29.273 29.353 29.428 29.495 29.556 29.609 29.654 29.692 29.722 29.744 29.759 29.766 29.765 29.758 29.743 29.723 29.696 29.664 29.628 29.587 29.543 29.495 29.445 29.394 29.341 29.287 29.234 29.180 29.128 29.078 29.029 28.982 28.938 28.896 28.858 28.823 28.791 28.763 28.738 28.716 28.698 28.684 28.673 28.665 28.660 28.659 28.660 28.664 28.670 28.679 28.690 28.703 28.718 28.735 28.753 28.773 28.794 28.816 28.838 28.862 28.887 28.912 28.938 28.965 28.991 29.019 29.046 29.074 29.102 29.131 29.159 29.188 29.217 29.246 29.275 29.304 29.333 29.363 29.392 29.421 29.451 29.481 29.510 29.540 29.570 29.599 29.629 29.659
26.292 26.351 26.413 26.479 26.548 26.620 26.696 26.775 26.859 26.946 27.037 27.132 27.231 27.333 27.439 27.548 27.660 27.775 27.893 28.012 28.133 28.255 28.377 28.500 28.621 28.742 28.860 28.976 29.088 29.196 29.300 29.398 29.491 29.577 29.656 29.727 29.791 29.846 29.894 29.932 29.962 29.984 29.997 30.001 29.997 29.986 29.967 29.941 29.909 29.870 29.827 29.778 29.726 29.671 29.612 29.552 29.491 29.428 29.366 29.304 29.244 29.184 29.127 29.073 29.021 28.972 28.926 28.884 28.846 28.812 28.781 28.754 28.732 28.713 28.697 28.686 28.677 28.672 28.671 28.672 28.676 28.683 28.692 28.703 28.717 28.732 28.749 28.768 28.787 28.809 28.831 28.854 28.878 28.903 28.928 28.954 28.981 29.008 29.035 29.062 29.090 29.118 29.147 29.175 29.204 29.233 29.262 29.291 29.320 29.349 29.378 29.408 29.437 29.466 29.496 29.525 29.555 29.585 29.614 29.644
26.299 26.361 26.427 26.496 26.568 26.645 26.726 26.810 26.899 26.992 27.089 27.191 27.296 27.406 27.520 27.637 27.757 27.881 28.007 28.136 28.266 28.397 28.529 28.661 28.792 28.921 29.048 29.173 29.293 29.410 29.521 29.626 29.725 29.816 29.900 29.976 30.043 30.101 30.150 30.190 30.220 30.240 30.251 30.253 30.246 30.230 30.206 30.175 30.136 30.091 30.040 29.984 29.923 29.859 29.792 29.722 29.652 29.580 29.509 29.438 29.368 29.300 29.234 29.170 29.110 29.054 29.000 28.951 28.906 28.865 28.829 28.796 28.768 28.744 28.725 28.709 28.697 28.689 28.684 28.682 28.684 28.688 28.695 28.705 28.717 28.730 28.746 28.764 28.782 28.803 28.824 28.847 28.870 28.894 28.919 28.945 28.971 28.997 29.024 29.051 29.079 29.107 29.135 29.163 29.192 29.220 29.249 29.278 29.307 29.336 29.365 29.394 29.423 29.452 29.482 29.511 29.541 29.570 29.600 29.630
26.307 26.373 26.442 26.515 26.592 26.673 26.758 26.848 26.943 27.042 27.146 27.254 27.367 27.485 27.606 27.732 27.862 27.994 28.130 28.268 28.408 28.549 28.691 28.833 28.973 29.113 29.249 29.383 29.512 29.637 29.756 29.869 29.974 30.072 30.161 30.241 30.312 30.373 30.424 30.464 30.494 30.514 30.523 30.522 30.511 30.491 30.462 30.424 30.379 30.326 30.268 30.203 30.134 30.060 29.984 29.905 29.824 29.742 29.661 29.580 29.501 29.423 29.348 29.275 29.207 29.141 29.080 29.024 28.971 28.924 28.881 28.842 28.809 28.780 28.755 28.735 28.719 28.707 28.699 28.694 28.693 28.695 28.700 28.708 28.718 28.730 28.745 28.761 28.779 28.798 28.819 28.841 28.863 28.887 28.911 28.936 28.962 28.988 29.014 29.041 29.069 29.096 29.124 29.152 29.180 29.208 29.236 29.265 29.294 29.323 29.351 29.380 29.409 29.439 29.468 29.497 29.527 29.556 29.586 29.615
26.317 26.386 26.459 26.536 26.617 26.703 26.794 26.889 26.990 27.096 27.206 27.322 27.443 27.569 27.699 27.834 27.973 28.115 28.261 28.409 28.559 28.711 28.863 29.015 29.167 29.316 29.463 29.606 29.745 29.879 30.006 30.126 30.239 30.343 30.438 30.523 30.597 30.661 30.714 30.755 30.785 30.804 30.811 30.807 30.793 30.768 30.733 30.689 30.637 30.577 30.509 30.436 30.357 30.274 30.187 30.098 30.007 29.915 29.823 29.732 29.642 29.554 29.469 29.388 29.309 29.235 29.166 29.101 29.041 28.986 28.937 28.892 28.852 28.818 28.789 28.764 28.744 28.728 28.717 28.709 28.705 28.705 28.707 28.713 28.721 28.732 28.745 28.760 28.777 28.795 28.815 28.836 28.858 28.881 28.905 28.929 28.954 28.980 29.006 29.032 29.059 29.086 29.113 29.141 29.169 29.197 29.225 29.253 29.281 29.310 29.339 29.367 29.396 29.425 29.454 29.483 29.513 29.542 29.571 29.601
26.329 26.401 26.478 26.559 26.645 26.736 26.832 26.933 27.040 27.153 27.271 27.395 27.524 27.658 27.798 27.942 28.090 28.243 28.399 28.558 28.719 28.882 29.045 29.209 29.371 29.531 29.689 29.842 29.991 30.134 30.270 30.399 30.519 30.629 30.730 30.820 30.899 30.966 31.020 31.063 31.093 31.110 31.116 31.109 31.090 31.060 31.020 30.969 30.909 30.841 30.765 30.682 30.593 30.500 30.403 30.303 30.201 30.098 29.995 29.893 29.792 29.694 29.599 29.507 29.419 29.336 29.257 29.184 29.116 29.054 28.997 28.946 28.900 28.860 28.825 28.796 28.771 28.752 28.737 28.726 28.719 28.716 28.717 28.720 28.727 28.736 28.748 28.761 28.777 28.794 28.813 28.833 28.854 28.876 28.899 28.923 28.948 28.973 28.998 29.024 29.051 29.077 29.104 29.131 29.159 29.186 29.214 29.242 29.270 29.298 29.326 29.355 29.383 29.412 29.441 29.470 29.499 29.528 29.557 29.587
26.341 26.417 26.498 26.583 26.674 26.771 26.873 26.980 27.094 27.214 27.340 27.471 27.609 27.753 27.902 28.056 28.215 28.378 28.545 28.715 28.888 29.062 29.237 29.412 29.586 29.758 29.926 30.090 30.250 30.402 30.548 30.685 30.813 30.931 31.037 31.133 31.215 31.285 31.342 31.386 31.416 31.433 31.436 31.426 31.403 31.368 31.321 31.263 31.196 31.119 31.033 30.941 30.842 30.738 30.629 30.518 30.405 30.290 30.176 30.062 29.950 29.841 29.735 29.633 29.535 29.442 29.354 29.272 29.196 29.125 29.061 29.003 28.951 28.905 28.865 28.831 28.802 28.778 28.760 28.746 28.736 28.730 28.728 28.730 28.734 28.742 28.752 28.764 28.779 28.795 28.813 28.832 28.852 28.874 28.896 28.919 28.943 28.968 28.992 29.018 29.044 29.070 29.096 29.123 29.150 29.177 29.204 29.231 29.259 29.287 29.315 29.343 29.371 29.400 29.428 29.457 29.486 29.515 29.544 29.573
26.355 26.435 26.520 26.610 26.706 26.808 26.916 27.030 27.151 27.278 27.412 27.552 27.699 27.852 28.011 28.175 28.345 28.520 28.698 28.880 29.065 29.251 29.438 29.625 29.811 29.994 30.175 30.350 30.520 30.683 30.838 30.984 31.120 31.246 31.359 31.459 31.547 31.620 31.679 31.724 31.754 31.769 31.770 31.757 31.730 31.689 31.636 31.571 31.495 31.409 31.314 31.211 31.102 30.987 30.867 30.744 30.618 30.492 30.366 30.240 30.116 29.996 29.878 29.765 29.657 29.553 29.456 29.365 29.280 29.202 29.130 29.065 29.006 28.954 28.909 28.869 28.836 28.808 28.786 28.768 28.755 28.747 28.743 28.742 28.745 28.750 28.759 28.770 28.783 28.798 28.815 28.833 28.853 28.873 28.895 28.917 28.941 28.964 28.988 29.013 29.038 29.064 29.089 29.115 29.142 29.168 29.195 29.222 29.249 29.276 29.304 29.332 29.359 29.388 29.416 29.444 29.473 29.501 29.530 29.559
26.370 26.454 26.543 26.638 26.739 26.847 26.961 27.082 27.210 27.345 27.487 27.637 27.793 27.955 28.125 28.300 28.481 28.667 28.858 29.052 29.249 29.447 29.647 29.847 30.045 30.241 30.433 30.620 30.802 30.975 31.141 31.296 31.441 31.573 31.693 31.799 31.891 31.968 32.030 32.076 32.106 32.120 32.118 32.101 32.070 32.024 31.964 31.891 31.807 31.712 31.607 31.493 31.373 31.246 31.114 30.979 30.841 30.702 30.563 30.426 30.290 30.157 30.028 29.903 29.784 29.671 29.563 29.463 29.369 29.282 29.203 29.130 29.065 29.007 28.956 28.911 28.873 28.841 28.814 28.794 28.778 28.767 28.760 28.757 28.758 28.762 28.769 28.778 28.790 28.804 28.820 28.837 28.856 28.876 28.896 28.918 28.940 28.963 28.987 29.011 29.035 29.060 29.085 29.110 29.135 29.161 29.187 29.214 29.240 29.267 29.294 29.321 29.348 29.376 29.404 29.432 29.460 29.488 29.517 29.546
26.386 26.474 26.568 26.668 26.774 26.888 27.009 27.137 27.272 27.415 27.566 27.724 27.890 28.063 28.243 28.430 28.622 28.820 29.023 29.230 29.439 29.651 29.864 30.077 30.288 30.496 30.701 30.900 31.093 31.278 31.453 31.618 31.772 31.912 32.039 32.151 32.248 32.328 32.392 32.440 32.470 32.483 32.479 32.458 32.422 32.370 32.303 32.223 32.130 32.025 31.910 31.785 31.653 31.514 31.370 31.222 31.072 30.920 30.768 30.618 30.470 30.324 30.183 30.047 29.917 29.793 29.675 29.565 29.462 29.367 29.279 29.199 29.127 29.063 29.006 28.956 28.913 28.877 28.847 28.822 28.803 28.790 28.780 28.775 28.774 28.777 28.782 28.790 28.801 28.814 28.828 28.844 28.862 28.881 28.901 28.921 28.943 28.965 28.987 29.010 29.034 29.058 29.082 29.106 29.131 29.156 29.181 29.207 29.233 29.259 29.285 29.311 29.338 29.365 29.393 29.420 29.448 29.476 29.504 29.533
26.403 26.495 26.593 26.698 26.811 26.930 27.058 27.193 27.336 27.488 27.647 27.815 27.991 28.174 28.365 28.563 28.768 28.978 29.193 29.413 29.636 29.861 30.087 30.313 30.538 30.759 30.977 31.189 31.393 31.589 31.776 31.950 32.113 32.262 32.395 32.514 32.615 32.699 32.766 32.814 32.844 32.856 32.850 32.825 32.784 32.726 32.652 32.564 32.462 32.347 32.221 32.086 31.942 31.791 31.634 31.473 31.310 31.145 30.980 30.816 30.655 30.498 30.344 30.196 30.054 29.919 29.791 29.671 29.559 29.455 29.359 29.272 29.193 29.122 29.060 29.005 28.957 28.916 28.882 28.855 28.833 28.816 28.804 28.797 28.794 28.795 28.799 28.806 28.815 28.827 28.840 28.855 28.872 28.890 28.908 28.928 28.948 28.969 28.991 29.013 29.035 29.058 29.081 29.105 29.128 29.152 29.177 29.201 29.226 29.252 29.277 29.303 29.329 29.356 29.382 29.409 29.437 29.464 29.492 29.520
26.420 26.517 26.620 26.730 26.848 26.974 27.108 27.251 27.402 27.562 27.731 27.908 28.094 28.288 28.490 28.700 28.917 29.140 29.368 29.601 29.837 30.076 30.316 30.556 30.794 31.029 31.259 31.484 31.701 31.908 32.105 32.290 32.462 32.619 32.760 32.884 32.991 33.079 33.148 33.198 33.228 33.238 33.229 33.201 33.155 33.091 33.010 32.913 32.802 32.678 32.541 32.394 32.238 32.074 31.904 31.730 31.554 31.375 31.197 31.020 30.846 30.675 30.510 30.350 30.196 30.050 29.911 29.781 29.660 29.547 29.443 29.348 29.263 29.185 29.117 29.057 29.004 28.959 28.922 28.891 28.866 28.847 28.833 28.824 28.819 28.818 28.820 28.826 28.834 28.844 28.856 28.870 28.886 28.902 28.920 28.939 28.958 28.978 28.998 29.019 29.040 29.062 29.084 29.106 29.128 29.151 29.175 29.198 29.222 29.246 29.271 29.296 29.321 29.347 29.373 29.399 29.426 29.453 29.480 29.508
26.438 26.539 26.647 26.763 26.887 27.019 27.160 27.310 27.469 27.638 27.816 28.003 28.199 28.404 28.618 28.840 29.069 29.304 29.546 29.792 30.042 30.295 30.549 30.802 31.054 31.303 31.547 31.784 32.013 32.233 32.441 32.636 32.818 32.983 33.131 33.262 33.374 33.466 33.537 33.588 33.618 33.627 33.616 33.584 33.533 33.463 33.374 33.269 33.149 33.014 32.866 32.707 32.539 32.363 32.180 31.993 31.802 31.610 31.419 31.228 31.041 30.857 30.679 30.507 30.341 30.184 30.035 29.895 29.764 29.642 29.531 29.428 29.335 29.252 29.178 29.112 29.056 29.007 28.965 28.931 28.903 28.882 28.865 28.854 28.848 28.845 28.846 28.850 28.857 28.866 28.877 28.890 28.904 28.920 28.936 28.954 28.972 28.990 29.009 29.029 29.049 29.069 29.089 29.110 29.131 29.153 29.175 29.197 29.220 29.243 29.266 29.290 29.315 29.339 29.364 29.390 29.416 29.442 29.469 29.496
26.457 26.562 26.675 26.796 26.926 27.065 27.213 27.370 27.538 27.715 27.902 28.099 28.306 28.522 28.747 28.981 29.222 29.471 29.726 29.986 30.250 30.517 30.785 31.052 31.318 31.581 31.838 32.088 32.330 32.561 32.781 32.987 33.177 33.351 33.507 33.644 33.761 33.857 33.931 33.983 34.013 34.021 34.007 33.972 33.915 33.838 33.743 33.629 33.499 33.354 33.195 33.025 32.844 32.655 32.459 32.258 32.054 31.849 31.643 31.439 31.238 31.042 30.851 30.666 30.490 30.321 30.161 30.011 29.871 29.741 29.621 29.511 29.412 29.322 29.243 29.172 29.111 29.058 29.013 28.976 28.945 28.921 28.903 28.890 28.882 28.878 28.878 28.880 28.886 28.894 28.904 28.916 28.929 28.943 28.958 28.974 28.990 29.007 29.025 29.043 29.061 29.080 29.099 29.118 29.137 29.157 29.178 29.199 29.220 29.241 29.264 29.286 29.309 29.333 29.357 29.382 29.407 29.433 29.459 29.485
26.475 26.585 26.703 26.830 26.965 27.111 27.266 27.431 27.606 27.792 27.989 28.196 28.413 28.640 28.877 29.123 29.377 29.639 29.907 30.181 30.459 30.740 31.022 31.303 31.583 31.860 32.130 32.394 32.648 32.892 33.123 33.339 33.539 33.721 33.885 34.028 34.150 34.250 34.327 34.380 34.411 34.417 34.400 34.361 34.299 34.217 34.113 33.992 33.852 33.696 33.527 33.344 33.151 32.949 32.740 32.525 32.308 32.089 31.869 31.652 31.438 31.228 31.025 30.828 30.640 30.460 30.290 30.130 29.981 29.842 29.714 29.597 29.491 29.396 29.311 29.236 29.170 29.114 29.066 29.026 28.993 28.967 28.947 28.932 28.922 28.917 28.915 28.917 28.921 28.928 28.937 28.947 28.959 28.972 28.986 29.000 29.015 29.030 29.046 29.062 29.078 29.095 29.112 29.130 29.147 29.165 29.184 29.203 29.222 29.243 29.263 29.284 29.306 29.329 29.352 29.375 29.399 29.424 29.449 29.475
26.494 26.608 26.731 26.863 27.005 27.156 27.319 27.491 27.675 27.870 28.076 28.293 28.520 28.759 29.007 29.265 29.532 29.807 30.088 30.376 30.667 30.962 31.258 31.554 31.848 32.138 32.423 32.699 32.967 33.222 33.464 33.691 33.900 34.091 34.262 34.412 34.539 34.643 34.722 34.777 34.807 34.813 34.794 34.750 34.683 34.594 34.484 34.353 34.204 34.039 33.858 33.664 33.458 33.243 33.021 32.793 32.562 32.329 32.096 31.865 31.638 31.416 31.200 30.991 30.791 30.601 30.421 30.251 30.093 29.946 29.810 29.687 29.574 29.473 29.383 29.304 29.234 29.175 29.124 29.081 29.046 29.018 28.996 28.980 28.969 28.963 28.960 28.960 28.964 28.969 28.977 28.986 28.997 29.008 29.020 29.033 29.046 29.059 29.073 29.087 29.101 29.116 29.131 29.146 29.161 29.177 29.194 29.211 29.228 29.246 29.265 29.285 29.305 29.326 29.347 29.370 29.393 29.416 29.440 29.465
26.512 26.631 26.759 26.896 27.044 27.202 27.371 27.551 27.743 27.946 28.162 28.388 28.627 28.876 29.136 29.406 29.685 29.973 30.268 30.569 30.874 31.183 31.493 31.803 32.111 32.415 32.713 33.003 33.282 33.549 33.803 34.040 34.259 34.458 34.637 34.793 34.925 35.033 35.115 35.171 35.201 35.205 35.183 35.136 35.065 34.969 34.851 34.713 34.554 34.378 34.186 33.980 33.763 33.535 33.300 33.059 32.814 32.568 32.322 32.078 31.838 31.603 31.375 31.154 30.943 30.742 30.552 30.373 30.206 30.051 29.909 29.779 29.661 29.554 29.460 29.376 29.303 29.240 29.187 29.142 29.105 29.076 29.053 29.035 29.023 29.016 29.012 29.012 29.014 29.019 29.025 29.033 29.042 29.052 29.062 29.073 29.084 29.095 29.107 29.118 29.130 29.142 29.155 29.167 29.180 29.194 29.208 29.222 29.237 29.253 29.270 29.288 29.306 29.325 29.345 29.366 29.387 29.410 29.433 29.457
26.530 26.653 26.786 26.928 27.082 27.246 27.422 27.610 27.810 28.022 28.246 28.483 28.731 28.991 29.263 29.544 29.836 30.136 30.444 30.759 31.078 31.401 31.725 32.048 32.370 32.687 32.998 33.301 33.593 33.872 34.136 34.383 34.612 34.820 35.006 35.168 35.305 35.417 35.501 35.559 35.589 35.592 35.568 35.517 35.440 35.338 35.213 35.066 34.899 34.713 34.510 34.293 34.063 33.823 33.575 33.321 33.063 32.804 32.545 32.288 32.035 31.788 31.548 31.317 31.095 30.884 30.684 30.496 30.321 30.159 30.010 29.873 29.750 29.639 29.540 29.453 29.377 29.312 29.256 29.210 29.171 29.141 29.117 29.099 29.086 29.078 29.073 29.072 29.074 29.077 29.082 29.089 29.096 29.104 29.113 29.122 29.130 29.139 29.148 29.157 29.166 29.175 29.185 29.194 29.204 29.215 29.226 29.238 29.251 29.264 29.278 29.293 29.309 29.327 29.345 29.364 29.384 29.405 29.426 29.449
26.547 26.674 26.812 26.960 27.119 27.289 27.472 27.667 27.875 28.095 28.328 28.574 28.833 29.104 29.386 29.680 29.983 30.296 30.617 30.944 31.277 31.613 31.950 32.288 32.623 32.953 33.277 33.592 33.896 34.187 34.462 34.719 34.957 35.173 35.366 35.534 35.676 35.792 35.879 35.938 35.968 35.970 35.943 35.888 35.807 35.699 35.567 35.412 35.236 35.040 34.827 34.598 34.357 34.105 33.844 33.578 33.307 33.035 32.763 32.494 32.229 31.970 31.719 31.477 31.245 31.024 30.815 30.619 30.437 30.268 30.112 29.970 29.842 29.727 29.625 29.535 29.456 29.389 29.332 29.284 29.245 29.214 29.189 29.171 29.157 29.149 29.144 29.142 29.143 29.145 29.150 29.155 29.160 29.167 29.173 29.179 29.186 29.192 29.198 29.204 29.210 29.216 29.222 29.228 29.235 29.242 29.250 29.258 29.268 29.278 29.290 29.302 29.316 29.331 29.347 29.364 29.382 29.401 29.421 29.443
26.563 26.695 26.837 26.990 27.154 27.331 27.520 27.722 27.937 28.166 28.408 28.663 28.931 29.212 29.505 29.810 30.125 30.450 30.784 31.124 31.469 31.818 32.169 32.519 32.868 33.211 33.547 33.875 34.190 34.492 34.777 35.044 35.291 35.515 35.715 35.889 36.036 36.155 36.245 36.305 36.335 36.336 36.306 36.248 36.162 36.049 35.910 35.747 35.562 35.357 35.133 34.894 34.642 34.378 34.105 33.827 33.544 33.260 32.976 32.695 32.418 32.148 31.886 31.634 31.392 31.163 30.946 30.742 30.553 30.377 30.216 30.070 29.937 29.819 29.714 29.621 29.541 29.473 29.415 29.366 29.327 29.295 29.270 29.252 29.239 29.230 29.225 29.223 29.223 29.225 29.228 29.231 29.235 29.240 29.244 29.248 29.251 29.254 29.257 29.259 29.262 29.264 29.266 29.269 29.271 29.275 29.279 29.284 29.290 29.297 29.305 29.315 29.325 29.338 29.351 29.366 29.382 29.399 29.418 29.438
26.578 26.713 26.860 27.018 27.188 27.370 27.565 27.774 27.997 28.233 28.483 28.747 29.025 29.316 29.620 29.935 30.262 30.598 30.943 31.296 31.653 32.015 32.378 32.742 33.102 33.458 33.806 34.145 34.472 34.784 35.080 35.356 35.611 35.843 36.050 36.230 36.381 36.504 36.596 36.657 36.687 36.687 36.655 36.594 36.503 36.384 36.239 36.068 35.875 35.661 35.428 35.178 34.915 34.640 34.356 34.066 33.772 33.476 33.181 32.889 32.602 32.321 32.049 31.787 31.537 31.299 31.074 30.864 30.668 30.488 30.322 30.171 30.036 29.914 29.807 29.713 29.632 29.563 29.505 29.456 29.417 29.386 29.361 29.344 29.331 29.322 29.317 29.315 29.315 29.316 29.318 29.320 29.322 29.324 29.326 29.327 29.327 29.327 29.326 29.325 29.323 29.321 29.319 29.317 29.315 29.315 29.314 29.315 29.317 29.320 29.325 29.331 29.338 29.347 29.358 29.370 29.384 29.399 29.416 29.434
26.591 26.731 26.881 27.044 27.219 27.407 27.608 27.823 28.053 28.296 28.555 28.827 29.114 29.414 29.727 30.053 30.390 30.738 31.094 31.458 31.828 32.201 32.577 32.952 33.324 33.692 34.052 34.402 34.739 35.062 35.367 35.652 35.915 36.154 36.367 36.553 36.709 36.834 36.929 36.991 37.022 37.020 36.986 36.922 36.827 36.703 36.551 36.374 36.173 35.950 35.708 35.449 35.175 34.890 34.595 34.294 33.989 33.683 33.377 33.074 32.777 32.487 32.206 31.935 31.677 31.432 31.201 30.984 30.783 30.598 30.429 30.275 30.137 30.014 29.905 29.811 29.729 29.660 29.602 29.555 29.516 29.486 29.463 29.446 29.434 29.426 29.422 29.420 29.419 29.420 29.421 29.421 29.422 29.422 29.421 29.419 29.415 29.411 29.406 29.400 29.394 29.387 29.380 29.374 29.367 29.361 29.357 29.353 29.350 29.349 29.349 29.351 29.355 29.361 29.368 29.377 29.388 29.401 29.416 29.432
26.603 26.746 26.901 27.067 27.247 27.440 27.647 27.868 28.104 28.355 28.621 28.901 29.196 29.505 29.828 30.163 30.511 30.868 31.236 31.610 31.991 32.376 32.763 33.149 33.533 33.911 34.282 34.642 34.990 35.322 35.636 35.930 36.200 36.446 36.665 36.855 37.016 37.144 37.241 37.305 37.335 37.332 37.297 37.229 37.130 37.001 36.844 36.660 36.452 36.221 35.970 35.702 35.419 35.124 34.820 34.509 34.194 33.877 33.562 33.250 32.943 32.645 32.356 32.077 31.812 31.560 31.324 31.102 30.897 30.708 30.536 30.380 30.241 30.117 30.008 29.914 29.833 29.765 29.709 29.663 29.626 29.597 29.576 29.561 29.550 29.544 29.540 29.538 29.538 29.538 29.537 29.537 29.535 29.533 29.529 29.523 29.516 29.508 29.498 29.487 29.476 29.464 29.452 29.439 29.427 29.416 29.406 29.397 29.389 29.383 29.379 29.376 29.376 29.378 29.381 29.387 29.395 29.405 29.417 29.431
26.613 26.759 26.917 27.088 27.272 27.470 27.682 27.909 28.151 28.408 28.681 28.969 29.271 29.589 29.920 30.264 30.621 30.988 31.365 31.750 32.141 32.537 32.934 33.331 33.725 34.113 34.494 34.864 35.221 35.562 35.885 36.186 36.464 36.716 36.940 37.135 37.299 37.431 37.530 37.594 37.625 37.621 37.584 37.513 37.411 37.277 37.115 36.925 36.710 36.472 36.213 35.937 35.646 35.342 35.028 34.708 34.384 34.059 33.735 33.414 33.100 32.793 32.497 32.212 31.941 31.684 31.443 31.218 31.009 30.818 30.644 30.487 30.347 30.224 30.116 30.023 29.944 29.878 29.824 29.780 29.746 29.720 29.701 29.688 29.679 29.674 29.672 29.671 29.670 29.670 29.669 29.667 29.664 29.658 29.651 29.642 29.630 29.617 29.603 29.587 29.569 29.551 29.533 29.515 29.497 29.479 29.463 29.448 29.434 29.423 29.413 29.406 29.401 29.398 29.398 29.400 29.405 29.412 29.421 29.432
26.621 26.770 26.931 27.106 27.294 27.496 27.713 27.945 28.193 28.456 28.735 29.029 29.339 29.664 30.003 30.355 30.720 31.097 31.483 31.877 32.277 32.682 33.089 33.495 33.899 34.297 34.687 35.066 35.431 35.780 36.110 36.419 36.703 36.961 37.191 37.390 37.557 37.692 37.792 37.858 37.889 37.884 37.845 37.772 37.666 37.529 37.361 37.166 36.945 36.700 36.435 36.151 35.852 35.540 35.219 34.890 34.558 34.225 33.893 33.566 33.244 32.931 32.629 32.339 32.063 31.802 31.557 31.330 31.119 30.927 30.753 30.596 30.457 30.335 30.229 30.138 30.062 29.999 29.948 29.907 29.877 29.854 29.838 29.828 29.822 29.819 29.818 29.818 29.819 29.818 29.816 29.813 29.807 29.799 29.788 29.775 29.759 29.741 29.721 29.698 29.675 29.650 29.625 29.600 29.575 29.551 29.528 29.506 29.487 29.469 29.454 29.441 29.431 29.423 29.418 29.416 29.417 29.421 29.427 29.435
26.626 26.778 26.942 27.120 27.312 27.518 27.739 27.976 28.228 28.497 28.781 29.082 29.398 29.729 30.076 30.436 30.808 31.192 31.587 31.989 32.398 32.811 33.226 33.641 34.053 34.460 34.858 35.245 35.618 35.974 36.311 36.626 36.916 37.179 37.413 37.617 37.787 37.924 38.026 38.093 38.123 38.118 38.078 38.002 37.894 37.752 37.581 37.381 37.154 36.904 36.632 36.342 36.036 35.717 35.389 35.054 34.715 34.375 34.037 33.703 33.376 33.058 32.751 32.457 32.178 31.914 31.667 31.438 31.227 31.035 30.861 30.706 30.569 30.449 30.346 30.259 30.187 30.128 30.081 30.045 30.019 30.001 29.989 29.982 29.979 29.979 29.980 29.982 29.983 29.983 29.980 29.975 29.967 29.956 29.941 29.924 29.903 29.879 29.852 29.824 29.793 29.761 29.729 29.696 29.664 29.632 29.602 29.573 29.546 29.522 29.500 29.481 29.465 29.452 29.442 29.436 29.432 29.432 29.435 29.440
26.629 26.783 26.950 27.131 27.326 27.535 27.760 28.001 28.258 28.531 28.820 29.126 29.448 29.785 30.137 30.504 30.883 31.274 31.675 32.085 32.501 32.922 33.345 33.767 34.187 34.601 35.006 35.400 35.780 36.142 36.485 36.805 37.100 37.368 37.606 37.813 37.986 38.125 38.229 38.296 38.327 38.321 38.279 38.202 38.091 37.947 37.772 37.567 37.336 37.081 36.804 36.508 36.197 35.872 35.538 35.197 34.852 34.507 34.164 33.825 33.494 33.172 32.862 32.565 32.284 32.018 31.771 31.542 31.332 31.141 30.969 30.817 30.683 30.567 30.469 30.386 30.319 30.265 30.224 30.194 30.173 30.159 30.152 30.150 30.151 30.154 30.158 30.162 30.164 30.164 30.161 30.154 30.144 30.129 30.111 30.088 30.062 30.032 29.998 29.962 29.924 29.885 29.844 29.803 29.762 29.723 29.684 29.647 29.613 29.581 29.552 29.526 29.504 29.485 29.470 29.459 29.450 29.446 29.445 29.447
26.629 26.785 26.955 27.138 27.335 27.548 27.776 28.020 28.280 28.557 28.851 29.161 29.488 29.830 30.187 30.559 30.944 31.341 31.748 32.164 32.587 33.014 33.443 33.872 34.298 34.718 35.129 35.529 35.914 36.282 36.630 36.955 37.255 37.526 37.768 37.977 38.153 38.294 38.399 38.467 38.497 38.491 38.448 38.370 38.256 38.110 37.931 37.724 37.489 37.229 36.948 36.648 36.332 36.003 35.664 35.319 34.970 34.620 34.273 33.931 33.597 33.273 32.961 32.663 32.380 32.115 31.868 31.641 31.433 31.245 31.077 30.928 30.799 30.689 30.596 30.520 30.459 30.412 30.377 30.353 30.338 30.331 30.330 30.333 30.338 30.345 30.352 30.358 30.361 30.362 30.358 30.350 30.337 30.319 30.297 30.269 30.236 30.200 30.159 30.115 30.069 30.021 29.971 29.921 29.872 29.823 29.775 29.730 29.687 29.647 29.610 29.577 29.548 29.523 29.502 29.485 29.472 29.463 29.457 29.455
26.626 26.784 26.955 27.140 27.340 27.555 27.785 28.032 28.296 28.576 28.873 29.187 29.517 29.864 30.225 30.602 30.991 31.393 31.805 32.226 32.653 33.086 33.520 33.954 34.385 34.810 35.226 35.631 36.021 36.393 36.745 37.074 37.377 37.652 37.896 38.108 38.286 38.428 38.534 38.602 38.633 38.627 38.583 38.503 38.388 38.239 38.059 37.849 37.611 37.348 37.064 36.760 36.440 36.108 35.766 35.417 35.066 34.713 34.364 34.020 33.684 33.359 33.047 32.749 32.467 32.204 31.959 31.735 31.530 31.346 31.183 31.041 30.918 30.814 30.728 30.659 30.606 30.566 30.539 30.523 30.516 30.515 30.521 30.529 30.540 30.552 30.562 30.571 30.576 30.577 30.573 30.563 30.548 30.526 30.499 30.466 30.427 30.383 30.335 30.282 30.227 30.170 30.111 30.051 29.991 29.933 29.875 29.821 29.769 29.720 29.675 29.634 29.597 29.565 29.538 29.515 29.496 29.482 29.472 29.466
26.620 26.780 26.952 27.139 27.340 27.557 27.789 28.038 28.304 28.586 28.886 29.203 29.536 29.885 30.250 30.630 31.023 31.428 31.844 32.269 32.700 33.136 33.575 34.013 34.447 34.876 35.296 35.705 36.098 36.474 36.829 37.161 37.466 37.743 37.990 38.204 38.383 38.526 38.633 38.702 38.733 38.726 38.682 38.601 38.485 38.335 38.153 37.940 37.701 37.436 37.149 36.843 36.521 36.187 35.843 35.492 35.139 34.786 34.435 34.091 33.755 33.430 33.119 32.823 32.544 32.284 32.043 31.822 31.623 31.445 31.289 31.153 31.037 30.942 30.864 30.804 30.759 30.729 30.711 30.703 30.704 30.712 30.725 30.740 30.757 30.774 30.789 30.800 30.807 30.809 30.805 30.794 30.776 30.750 30.718 30.679 30.633 30.581 30.525 30.463 30.399 30.331 30.262 30.191 30.121 30.052 29.985 29.920 29.858 29.800 29.746 29.696 29.652 29.612 29.577 29.548 29.523 29.504 29.489 29.479
26.612 26.772 26.945 27.133 27.335 27.553 27.787 28.037 28.304 28.589 28.890 29.209 29.544 29.895 30.262 30.644 31.040 31.447 31.866 32.293 32.727 33.166 33.607 34.047 34.484 34.916 35.338 35.749 36.145 36.523 36.880 37.214 37.521 37.800 38.048 38.263 38.443 38.587 38.694 38.764 38.795 38.788 38.744 38.662 38.546 38.395 38.211 37.998 37.757 37.492 37.204 36.897 36.574 36.238 35.894 35.543 35.189 34.836 34.486 34.143 33.809 33.486 33.178 32.885 32.610 32.354 32.119 31.904 31.712 31.541 31.392 31.265 31.159 31.072 31.004 30.954 30.920 30.899 30.891 30.894 30.904 30.921 30.942 30.965 30.989 31.011 31.031 31.046 31.055 31.058 31.053 31.041 31.020 30.991 30.953 30.908 30.855 30.795 30.729 30.658 30.583 30.505 30.424 30.343 30.262 30.181 30.103 30.027 29.954 29.886 29.822 29.764 29.711 29.663 29.621 29.584 29.554 29.529 29.509 29.494
26.600 26.760 26.934 27.122 27.325 27.544 27.778 28.029 28.297 28.582 28.885 29.204 29.540 29.893 30.261 30.644 31.041 31.449 31.869 32.297 32.733 33.173 33.615 34.057 34.496 34.928 35.352 35.764 36.161 36.540 36.899 37.233 37.542 37.821 38.070 38.285 38.466 38.611 38.718 38.788 38.819 38.812 38.768 38.686 38.569 38.418 38.235 38.021 37.780 37.514 37.227 36.920 36.597 36.262 35.918 35.568 35.216 34.865 34.517 34.176 33.845 33.526 33.222 32.934 32.664 32.415 32.186 31.979 31.795 31.633 31.494 31.376 31.280 31.205 31.148 31.109 31.086 31.077 31.080 31.093 31.114 31.141 31.171 31.203 31.234 31.263 31.287 31.306 31.318 31.322 31.318 31.304 31.280 31.246 31.203 31.151 31.091 31.022 30.947 30.866 30.780 30.690 30.598 30.505 30.411 30.319 30.229 30.141 30.058 29.979 29.905 29.837 29.774 29.718 29.668 29.624 29.587 29.556 29.530 29.511
26.585 26.745 26.919 27.107 27.310 27.529 27.763 28.014 28.282 28.567 28.870 29.189 29.525 29.878 30.246 30.629 31.026 31.434 31.854 32.282 32.718 33.158 33.600 34.042 34.481 34.913 35.337 35.749 36.146 36.525 36.884 37.218 37.527 37.806 38.055 38.270 38.451 38.596 38.703 38.773 38.805 38.798 38.754 38.673 38.556 38.405 38.222 38.010 37.769 37.504 37.217 36.912 36.591 36.258 35.916 35.568 35.219 34.871 34.527 34.190 33.864 33.550 33.251 32.970 32.707 32.465 32.245 32.047 31.873 31.721 31.592 31.486 31.402 31.339 31.294 31.268 31.258 31.261 31.277 31.302 31.334 31.372 31.412 31.453 31.492 31.527 31.558 31.581 31.596 31.601 31.597 31.581 31.555 31.517 31.468 31.409 31.341 31.263 31.178 31.086 30.988 30.887 30.782 30.676 30.570 30.466 30.363 30.263 30.168 30.078 29.993 29.914 29.842 29.777 29.719 29.667 29.623 29.585 29.554 29.529
26.567 26.727 26.900 27.088 27.290 27.508 27.742 27.992 28.259 28.544 28.845 29.164 29.499 29.850 30.217 30.599 30.995 31.402 31.821 32.248 32.682 33.121 33.562 34.002 34.439 34.871 35.293 35.704 36.100 36.478 36.835 37.169 37.477 37.755 38.003 38.218 38.399 38.543 38.651 38.720 38.752 38.746 38.702 38.621 38.506 38.356 38.174 37.963 37.724 37.461 37.176 36.873 36.555 36.225 35.886 35.543 35.198 34.854 34.515 34.184 33.864 33.557 33.266 32.992 32.738 32.506 32.295 32.108 31.944 31.804 31.688 31.594 31.523 31.473 31.443 31.430 31.434 31.451 31.480 31.518 31.562 31.612 31.663 31.713 31.761 31.804 31.840 31.868 31.886 31.894 31.889 31.872 31.842 31.800 31.746 31.680 31.603 31.515 31.420 31.316 31.207 31.093 30.976 30.857 30.738 30.619 30.504 30.392 30.284 30.182 30.086 29.996 29.914 29.839 29.772 29.713 29.661 29.617 29.579 29.549
26.545 26.705 26.877 27.064 27.265 27.482 27.714 27.963 28.229 28.511 28.811 29.128 29.461 29.810 30.175 30.555 30.948 31.353 31.769 32.194 32.625 33.061 33.500 33.938 34.372 34.801 35.221 35.630 36.023 36.399 36.754 37.086 37.392 37.669 37.916 38.129 38.309 38.453 38.560 38.629 38.661 38.655 38.612 38.533 38.418 38.270 38.090 37.881 37.645 37.385 37.104 36.804 36.490 36.164 35.830 35.492 35.152 34.815 34.483 34.159 33.846 33.548 33.265 33.001 32.757 32.535 32.336 32.160 32.009 31.882 31.779 31.700 31.643 31.608 31.592 31.594 31.613 31.644 31.688 31.739 31.797 31.859 31.922 31.983 32.040 32.091 32.133 32.166 32.188 32.197 32.193 32.174 32.142 32.095 32.035 31.961 31.875 31.778 31.672 31.557 31.435 31.308 31.177 31.045 30.912 30.780 30.651 30.525 30.405 30.290 30.183 30.082 29.989 29.905 29.829 29.761 29.701 29.650 29.606 29.570
26.521 26.679 26.850 27.035 27.235 27.450 27.680 27.927 28.191 28.471 28.768 29.082 29.412 29.759 30.120 30.497 30.886 31.288 31.700 32.121 32.548 32.981 33.415 33.849 34.280 34.705 35.121 35.526 35.916 36.288 36.641 36.969 37.273 37.548 37.792 38.004 38.182 38.325 38.431 38.501 38.533 38.527 38.485 38.407 38.295 38.149 37.972 37.766 37.533 37.277 37.000 36.705 36.396 36.076 35.748 35.416 35.084 34.754 34.430 34.114 33.811 33.522 33.249 32.996 32.764 32.554 32.367 32.205 32.067 31.954 31.866 31.802 31.761 31.741 31.741 31.759 31.793 31.841 31.899 31.966 32.038 32.112 32.187 32.259 32.326 32.385 32.435 32.473 32.499 32.510 32.506 32.486 32.450 32.399 32.332 32.251 32.156 32.049 31.932 31.805 31.670 31.530 31.385 31.239 31.092 30.946 30.803 30.664 30.530 30.403 30.283 30.171 30.067 29.973 29.887 29.811 29.743 29.685 29.635 29.593
26.494 26.650 26.820 27.003 27.200 27.413 27.641 27.885 28.145 28.422 28.716 29.026 29.353 29.695 30.052 30.424 30.809 31.206 31.613 32.029 32.452 32.879 33.308 33.737 34.163 34.583 34.994 35.394 35.779 36.148 36.496 36.821 37.120 37.392 37.634 37.844 38.020 38.162 38.267 38.336 38.368 38.364 38.323 38.247 38.136 37.993 37.819 37.617 37.389 37.138 36.866 36.577 36.274 35.961 35.641 35.316 34.992 34.671 34.356 34.051 33.758 33.479 33.219 32.978 32.758 32.561 32.388 32.240 32.118 32.020 31.948 31.900 31.875 31.872 31.889 31.924 31.975 32.038 32.113 32.195 32.281 32.370 32.457 32.540 32.617 32.686 32.743 32.786 32.816 32.829 32.825 32.804 32.766 32.710 32.637 32.548 32.444 32.327 32.198 32.058 31.911 31.757 31.598 31.437 31.276 31.116 30.959 30.806 30.659 30.518 30.386 30.262 30.148 30.043 29.947 29.862 29.787 29.721 29.664 29.616
26.464 26.618 26.785 26.966 27.161 27.370 27.595 27.836 28.093 28.366 28.655 28.961 29.283 29.620 29.972 30.339 30.718 31.109 31.510 31.920 32.336 32.757 33.180 33.602 34.022 34.436 34.841 35.235 35.615 35.977 36.320 36.641 36.936 37.204 37.443 37.650 37.824 37.964 38.068 38.137 38.169 38.165 38.126 38.051 37.944 37.804 37.634 37.437 37.214 36.968 36.703 36.421 36.125 35.820 35.508 35.193 34.878 34.567 34.263 33.969 33.687 33.421 33.173 32.945 32.739 32.557 32.399 32.267 32.160 32.079 32.024 31.993 31.985 32.000 32.034 32.087 32.155 32.235 32.326 32.424 32.526 32.628 32.729 32.824 32.912 32.989 33.053 33.103 33.136 33.152 33.149 33.126 33.085 33.024 32.945 32.848 32.736 32.608 32.467 32.315 32.155 31.987 31.814 31.639 31.463 31.288 31.116 30.949 30.789 30.635 30.490 30.355 30.229 30.114 30.009 29.914 29.831 29.757 29.694 29.640
26.431 26.583 26.747 26.925 27.117 27.323 27.544 27.781 28.033 28.302 28.586 28.887 29.203 29.534 29.881 30.241 30.613 30.997 31.392 31.794 32.203 32.616 33.031 33.446 33.858 34.265 34.663 35.050 35.423 35.780 36.117 36.432 36.722 36.985 37.220 37.424 37.595 37.733 37.836 37.904 37.936 37.933 37.896 37.824 37.719 37.584 37.418 37.226 37.009 36.770 36.512 36.238 35.951 35.654 35.352 35.047 34.743 34.443 34.151 33.869 33.600 33.347 33.113 32.900 32.709 32.542 32.400 32.284 32.194 32.130 32.092 32.079 32.090 32.122 32.175 32.246 32.331 32.430 32.537 32.651 32.769 32.886 33.000 33.107 33.206 33.292 33.364 33.420 33.457 33.475 33.473 33.449 33.405 33.340 33.254 33.150 33.028 32.890 32.738 32.573 32.399 32.218 32.031 31.841 31.650 31.461 31.275 31.094 30.919 30.753 30.595 30.448 30.311 30.185 30.070 29.967 29.875 29.794 29.724 29.664
26.396 26.545 26.706 26.881 27.069 27.271 27.488 27.720 27.968 28.231 28.510 28.804 29.114 29.439 29.778 30.130 30.495 30.872 31.258 31.652 32.053 32.457 32.864 33.270 33.674 34.072 34.462 34.841 35.207 35.556 35.886 36.194 36.479 36.737 36.967 37.167 37.336 37.471 37.573 37.640 37.673 37.671 37.635 37.566 37.465 37.333 37.173 36.987 36.776 36.545 36.295 36.029 35.752 35.465 35.174 34.880 34.588 34.300 34.020 33.751 33.497 33.258 33.039 32.841 32.666 32.515 32.390 32.291 32.218 32.173 32.153 32.158 32.187 32.239 32.310 32.399 32.503 32.619 32.744 32.875 33.008 33.139 33.267 33.387 33.496 33.592 33.672 33.733 33.775 33.796 33.794 33.770 33.722 33.652 33.561 33.449 33.318 33.169 33.006 32.829 32.642 32.447 32.246 32.041 31.836 31.633 31.432 31.237 31.049 30.869 30.699 30.540 30.392 30.255 30.131 30.019 29.919 29.830 29.754 29.688
26.358 26.504 26.662 26.833 27.017 27.215 27.427 27.654 27.896 28.153 28.426 28.714 29.016 29.334 29.665 30.009 30.366 30.733 31.110 31.495 31.886 32.282 32.679 33.076 33.470 33.859 34.239 34.610 34.967 35.308 35.630 35.932 36.210 36.463 36.688 36.883 37.048 37.181 37.281 37.347 37.380 37.379 37.346 37.279 37.182 37.056 36.901 36.721 36.518 36.295 36.053 35.797 35.530 35.255 34.975 34.693 34.413 34.139 33.873 33.618 33.378 33.155 32.951 32.769 32.610 32.477 32.369 32.288 32.233 32.206 32.205 32.229 32.277 32.347 32.438 32.545 32.668 32.802 32.944 33.091 33.240 33.386 33.527 33.660 33.780 33.885 33.973 34.041 34.087 34.110 34.109 34.084 34.034 33.959 33.862 33.742 33.602 33.444 33.269 33.080 32.880 32.672 32.457 32.238 32.019 31.801 31.586 31.378 31.176 30.984 30.801 30.630 30.471 30.324 30.191 30.070 29.962 29.866 29.782 29.711
26.318 26.461 26.616 26.782 26.962 27.155 27.362 27.583 27.819 28.070 28.336 28.616 28.911 29.220 29.543 29.878 30.226 30.583 30.951 31.325 31.706 32.091 32.478 32.864 33.248 33.626 33.997 34.358 34.705 35.038 35.352 35.646 35.917 36.163 36.382 36.574 36.735 36.865 36.963 37.028 37.061 37.062 37.030 36.967 36.874 36.753 36.604 36.432 36.236 36.021 35.790 35.544 35.288 35.024 34.756 34.487 34.221 33.961 33.709 33.470 33.245 33.038 32.850 32.685 32.543 32.427 32.337 32.274 32.238 32.229 32.247 32.290 32.357 32.447 32.556 32.682 32.823 32.975 33.134 33.298 33.462 33.624 33.778 33.923 34.054 34.168 34.263 34.337 34.388 34.414 34.414 34.387 34.335 34.256 34.153 34.026 33.878 33.710 33.524 33.324 33.111 32.889 32.661 32.429 32.196 31.964 31.736 31.513 31.299 31.094 30.900 30.717 30.548 30.391 30.248 30.119 30.003 29.900 29.810 29.732
26.276 26.416 26.566 26.729 26.904 27.092 27.293 27.508 27.738 27.981 28.240 28.512 28.799 29.099 29.412 29.738 30.075 30.423 30.779 31.143 31.513 31.886 32.262 32.637 33.010 33.377 33.737 34.087 34.425 34.748 35.053 35.338 35.602 35.841 36.055 36.241 36.398 36.525 36.621 36.686 36.719 36.721 36.691 36.632 36.543 36.427 36.285 36.120 35.933 35.728 35.506 35.271 35.027 34.775 34.520 34.265 34.013 33.767 33.531 33.307 33.098 32.907 32.737 32.589 32.464 32.366 32.294 32.249 32.232 32.242 32.279 32.341 32.427 32.535 32.663 32.808 32.967 33.136 33.313 33.493 33.672 33.848 34.016 34.172 34.314 34.437 34.540 34.620 34.675 34.704 34.704 34.677 34.622 34.540 34.431 34.298 34.141 33.964 33.768 33.556 33.332 33.097 32.856 32.611 32.364 32.119 31.878 31.643 31.416 31.199 30.994 30.800 30.620 30.454 30.302 30.165 30.042 29.932 29.836 29.753
26.233 26.368 26.515 26.673 26.843 27.025 27.220 27.429 27.652 27.888 28.138 28.402 28.680 28.971 29.275 29.590 29.917 30.253 30.598 30.951 31.308 31.670 32.033 32.397 32.757 33.113 33.462 33.801 34.128 34.440 34.736 35.012 35.268 35.500 35.707 35.888 36.041 36.165 36.259 36.322 36.355 36.358 36.332 36.276 36.192 36.082 35.947 35.789 35.611 35.415 35.204 34.981 34.749 34.510 34.269 34.028 33.790 33.560 33.339 33.131 32.939 32.765 32.611 32.481 32.374 32.294 32.240 32.214 32.215 32.244 32.299 32.380 32.485 32.612 32.758 32.921 33.097 33.283 33.476 33.672 33.867 34.056 34.237 34.405 34.557 34.689 34.799 34.885 34.944 34.975 34.977 34.950 34.893 34.807 34.693 34.553 34.388 34.202 33.997 33.774 33.539 33.293 33.039 32.782 32.523 32.265 32.012 31.764 31.526 31.298 31.081 30.878 30.688 30.513 30.353 30.208 30.077 29.961 29.859 29.771
26.188 26.320 26.462 26.615 26.779 26.956 27.145 27.347 27.562 27.791 28.033 28.288 28.556 28.837 29.130 29.435 29.750 30.075 30.409 30.749 31.094 31.443 31.794 32.145 32.493 32.836 33.173 33.500 33.816 34.118 34.403 34.671 34.918 35.142 35.343 35.518 35.666 35.786 35.878 35.941 35.974 35.978 35.954 35.902 35.823 35.719 35.591 35.442 35.273 35.087 34.887 34.676 34.456 34.231 34.004 33.777 33.555 33.340 33.135 32.943 32.768 32.611 32.475 32.362 32.273 32.210 32.175 32.167 32.186 32.233 32.307 32.406 32.529 32.674 32.838 33.018 33.212 33.415 33.623 33.834 34.043 34.246 34.438 34.617 34.779 34.920 35.037 35.129 35.192 35.226 35.229 35.201 35.142 35.052 34.934 34.788 34.617 34.422 34.208 33.976 33.730 33.473 33.208 32.939 32.668 32.399 32.134 31.876 31.627 31.388 31.161 30.948 30.750 30.567 30.399 30.246 30.109 29.987 29.880 29.787
26.142 26.269 26.407 26.555 26.714 26.884 27.067 27.262 27.470 27.690 27.923 28.169 28.428 28.699 28.981 29.275 29.578 29.891 30.212 30.539 30.872 31.208 31.546 31.883 32.218 32.549 32.873 33.188 33.492 33.783 34.058 34.316 34.554 34.770 34.964 35.133 35.277 35.393 35.483 35.544 35.578 35.583 35.562 35.513 35.440 35.342 35.221 35.080 34.921 34.746 34.557 34.358 34.151 33.940 33.727 33.515 33.308 33.109 32.920 32.745 32.586 32.447 32.328 32.232 32.161 32.116 32.098 32.108 32.146 32.211 32.302 32.419 32.560 32.722 32.902 33.099 33.309 33.527 33.751 33.976 34.198 34.413 34.618 34.807 34.978 35.127 35.251 35.347 35.414 35.451 35.455 35.426 35.366 35.273 35.151 35.000 34.822 34.620 34.398 34.157 33.902 33.635 33.360 33.080 32.799 32.519 32.244 31.976 31.717 31.468 31.233 31.011 30.805 30.614 30.439 30.280 30.137 30.010 29.898 29.800
26.095 26.218 26.351 26.493 26.647 26.811 26.987 27.175 27.375 27.587 27.811 28.048 28.296 28.556 28.828 29.109 29.401 29.701 30.009 30.324 30.643 30.966 31.290 31.614 31.935 32.253 32.564 32.866 33.158 33.438 33.702 33.950 34.179 34.387 34.574 34.737 34.876 34.989 35.076 35.136 35.169 35.177 35.157 35.113 35.045 34.953 34.840 34.708 34.558 34.394 34.217 34.030 33.836 33.639 33.440 33.244 33.052 32.869 32.696 32.538 32.396 32.273 32.171 32.093 32.039 32.012 32.011 32.038 32.093 32.175 32.284 32.417 32.574 32.753 32.949 33.162 33.386 33.619 33.857 34.095 34.330 34.557 34.771 34.970 35.150 35.306 35.436 35.538 35.608 35.647 35.652 35.624 35.562 35.467 35.341 35.185 35.002 34.794 34.564 34.316 34.052 33.776 33.492 33.204 32.913 32.624 32.340 32.063 31.795 31.538 31.294 31.065 30.851 30.654 30.473 30.308 30.160 30.028 29.911 29.810
26.047 26.166 26.294 26.431 26.579 26.737 26.906 27.086 27.278 27.481 27.697 27.923 28.162 28.411 28.671 28.941 29.220 29.508 29.803 30.104 30.409 30.718 31.028 31.338 31.646 31.950 32.248 32.538 32.818 33.085 33.339 33.576 33.796 33.996 34.175 34.332 34.466 34.575 34.659 34.718 34.752 34.761 34.744 34.704 34.641 34.556 34.450 34.327 34.187 34.034 33.868 33.694 33.514 33.330 33.146 32.964 32.788 32.621 32.465 32.322 32.197 32.091 32.006 31.944 31.907 31.897 31.913 31.957 32.028 32.126 32.251 32.400 32.573 32.766 32.978 33.205 33.443 33.689 33.940 34.190 34.436 34.673 34.897 35.105 35.292 35.455 35.591 35.697 35.771 35.812 35.818 35.790 35.727 35.630 35.501 35.341 35.154 34.940 34.704 34.449 34.178 33.895 33.604 33.307 33.009 32.712 32.420 32.135 31.859 31.595 31.345 31.109 30.889 30.686 30.499 30.330 30.177 30.041 29.921 29.816
25.999 26.113 26.236 26.368 26.510 26.661 26.824 26.996 27.180 27.375 27.581 27.798 28.025 28.264 28.512 28.770 29.037 29.312 29.593 29.881 30.172 30.467 30.764 31.060 31.354 31.644 31.928 32.205 32.472 32.728 32.970 33.197 33.407 33.599 33.771 33.921 34.050 34.155 34.237 34.295 34.329 34.339 34.325 34.289 34.231 34.152 34.055 33.940 33.810 33.667 33.514 33.352 33.185 33.015 32.846 32.679 32.519 32.367 32.227 32.101 31.991 31.902 31.833 31.788 31.767 31.772 31.804 31.864 31.950 32.064 32.204 32.368 32.554 32.762 32.987 33.227 33.477 33.736 33.997 34.258 34.514 34.761 34.993 35.209 35.402 35.571 35.712 35.822 35.899 35.942 35.950 35.922 35.858 35.760 35.629 35.466 35.274 35.057 34.816 34.555 34.279 33.990 33.692 33.389 33.084 32.781 32.482 32.191 31.909 31.640 31.384 31.143 30.918 30.710 30.519 30.345 30.189 30.049 29.926 29.819
25.950 26.060 26.178 26.305 26.440 26.586 26.741 26.906 27.081 27.267 27.464 27.671 27.888 28.115 28.352 28.598 28.852 29.114 29.382 29.656 29.934 30.215 30.497 30.779 31.059 31.335 31.606 31.869 32.124 32.368 32.599 32.815 33.016 33.199 33.363 33.508 33.631 33.733 33.812 33.868 33.902 33.913 33.903 33.870 33.818 33.746 33.656 33.550 33.430 33.298 33.156 33.007 32.853 32.697 32.542 32.390 32.245 32.108 31.984 31.873 31.780 31.706 31.653 31.623 31.618 31.638 31.686 31.760 31.861 31.988 32.141 32.319 32.519 32.738 32.975 33.227 33.488 33.757 34.029 34.299 34.563 34.818 35.058 35.279 35.479 35.653 35.798 35.912 35.992 36.037 36.045 36.018 35.954 35.855 35.722 35.557 35.362 35.141 34.897 34.632 34.352 34.058 33.755 33.448 33.138 32.830 32.526 32.230 31.944 31.670 31.409 31.164 30.936 30.724 30.530 30.353 30.194 30.052 29.927 29.817
25.902 26.007 26.120 26.241 26.371 26.510 26.658 26.815 26.983 27.160 27.347 27.544 27.751 27.967 28.192 28.426 28.668 28.916 29.171 29.431 29.695 29.962 30.230 30.497 30.763 31.026 31.283 31.534 31.776 32.007 32.227 32.433 32.624 32.799 32.956 33.094 33.212 33.309 33.386 33.441 33.475 33.488 33.480 33.451 33.404 33.338 33.256 33.159 33.049 32.928 32.797 32.661 32.520 32.377 32.236 32.099 31.968 31.847 31.737 31.642 31.564 31.505 31.467 31.452 31.461 31.496 31.557 31.645 31.759 31.899 32.065 32.254 32.465 32.695 32.943 33.204 33.475 33.753 34.032 34.310 34.582 34.843 35.089 35.316 35.520 35.698 35.847 35.964 36.046 36.093 36.103 36.076 36.012 35.912 35.778 35.612 35.416 35.193 34.946 34.679 34.396 34.099 33.793 33.482 33.169 32.858 32.551 32.252 31.962 31.685 31.422 31.174 30.943 30.729 30.532 30.354 30.193 30.049 29.922 29.811
25.853 25.954 26.062 26.178 26.302 26.434 26.575 26.725 26.884 27.053 27.231 27.418 27.614 27.819 28.033 28.255 28.484 28.719 28.961 29.207 29.457 29.710 29.964 30.218 30.469 30.718 30.962 31.200 31.429 31.649 31.857 32.053 32.235 32.401 32.550 32.682 32.795 32.888 32.962 33.016 33.050 33.064 33.059 33.034 32.992 32.933 32.858 32.770 32.669 32.559 32.440 32.315 32.187 32.058 31.930 31.807 31.691 31.584 31.489 31.409 31.345 31.300 31.276 31.275 31.298 31.346 31.419 31.519 31.645 31.797 31.973 32.172 32.393 32.633 32.889 33.158 33.437 33.722 34.008 34.292 34.569 34.835 35.086 35.317 35.525 35.707 35.858 35.977 36.061 36.109 36.121 36.094 36.031 35.932 35.798 35.631 35.435 35.211 34.963 34.695 34.410 34.112 33.804 33.492 33.177 32.864 32.556 32.255 31.964 31.685 31.421 31.172 30.939 30.724 30.526 30.347 30.185 30.040 29.912 29.800
25.805 25.902 26.005 26.115 26.233 26.359 26.493 26.636 26.787 26.947 27.116 27.293 27.479 27.673 27.875 28.085 28.302 28.525 28.753 28.986 29.222 29.461 29.701 29.941 30.179 30.414 30.645 30.869 31.086 31.294 31.491 31.677 31.849 32.007 32.149 32.274 32.382 32.472 32.543 32.596 32.630 32.645 32.642 32.622 32.585 32.532 32.465 32.384 32.293 32.193 32.085 31.972 31.856 31.740 31.626 31.517 31.414 31.321 31.240 31.174 31.124 31.092 31.082 31.093 31.128 31.188 31.273 31.384 31.520 31.682 31.867 32.075 32.304 32.551 32.814 33.090 33.375 33.664 33.956 34.244 34.525 34.795 35.049 35.283 35.494 35.677 35.830 35.951 36.037 36.087 36.099 36.074 36.011 35.913 35.779 35.613 35.417 35.194 34.946 34.678 34.394 34.096 33.789 33.476 33.162 32.849 32.540 32.240 31.949 31.670 31.406 31.156 30.924 30.709 30.511 30.331 30.170 30.025 29.897 29.785
25.758 25.850 25.948 26.053 26.166 26.285 26.413 26.548 26.691 26.843 27.002 27.170 27.346 27.529 27.720 27.918 28.123 28.333 28.548 28.768 28.991 29.216 29.442 29.668 29.893 30.115 30.332 30.544 30.749 30.945 31.132 31.307 31.470 31.619 31.754 31.873 31.976 32.062 32.131 32.183 32.216 32.233 32.232 32.216 32.183 32.137 32.077 32.005 31.923 31.832 31.735 31.634 31.530 31.426 31.325 31.229 31.139 31.060 30.992 30.938 30.901 30.882 30.884 30.907 30.954 31.024 31.119 31.240 31.385 31.554 31.747 31.962 32.197 32.450 32.719 32.999 33.287 33.581 33.875 34.166 34.450 34.722 34.977 35.213 35.425 35.610 35.764 35.886 35.973 36.024 36.037 36.013 35.952 35.855 35.723 35.559 35.364 35.142 34.896 34.630 34.347 34.051 33.746 33.435 33.123 32.811 32.505 32.206 31.917 31.640 31.376 31.129 30.898 30.684 30.487 30.309 30.148 30.004 29.877 29.766
25.711 25.799 25.893 25.993 26.099 26.213 26.334 26.462 26.597 26.740 26.891 27.049 27.215 27.388 27.568 27.755 27.947 28.145 28.348 28.555 28.764 28.976 29.189 29.402 29.613 29.822 30.026 30.226 30.419 30.604 30.780 30.945 31.099 31.240 31.368 31.481 31.579 31.661 31.728 31.778 31.812 31.829 31.831 31.818 31.791 31.750 31.697 31.633 31.560 31.479 31.392 31.302 31.209 31.118 31.029 30.945 30.868 30.801 30.745 30.704 30.679 30.672 30.684 30.718 30.774 30.854 30.958 31.087 31.239 31.415 31.614 31.835 32.074 32.331 32.603 32.885 33.176 33.472 33.767 34.059 34.344 34.616 34.872 35.108 35.320 35.506 35.661 35.783 35.871 35.922 35.937 35.914 35.855 35.759 35.630 35.467 35.275 35.056 34.814 34.551 34.271 33.978 33.677 33.369 33.060 32.753 32.449 32.154 31.868 31.594 31.334 31.089 30.860 30.649 30.454 30.278 30.119 29.977 29.852 29.742
25.665 25.749 25.838 25.933 26.034 26.142 26.256 26.377 26.505 26.640 26.782 26.932 27.088 27.250 27.420 27.595 27.776 27.962 28.153 28.347 28.544 28.743 28.942 29.142 29.340 29.536 29.729 29.916 30.097 30.271 30.437 30.592 30.737 30.871 30.992 31.099 31.192 31.271 31.335 31.384 31.417 31.436 31.441 31.431 31.408 31.373 31.327 31.270 31.206 31.134 31.057 30.977 30.896 30.816 30.738 30.666 30.601 30.546 30.502 30.472 30.458 30.461 30.484 30.527 30.592 30.680 30.791 30.926 31.084 31.266 31.469 31.693 31.935 32.194 32.467 32.751 33.042 33.338 33.633 33.925 34.208 34.479 34.734 34.970 35.181 35.366 35.520 35.642 35.730 35.783 35.798 35.777 35.720 35.627 35.500 35.341 35.153 34.938 34.699 34.441 34.166 33.878 33.582 33.279 32.976 32.673 32.375 32.084 31.803 31.533 31.278 31.037 30.812 30.604 30.413 30.240 30.084 29.944 29.821 29.714
25.620 25.700 25.785 25.875 25.971 26.073 26.181 26.295 26.416 26.543 26.677 26.817 26.964 27.117 27.276 27.440 27.610 27.785 27.963 28.145 28.330 28.516 28.703 28.890 29.076 29.260 29.440 29.616 29.786 29.949 30.104 30.251 30.387 30.513 30.627 30.729 30.818 30.893 30.954 31.002 31.036 31.055 31.062 31.056 31.037 31.008 30.968 30.919 30.862 30.799 30.732 30.662 30.591 30.522 30.455 30.394 30.340 30.295 30.262 30.243 30.239 30.251 30.283 30.334 30.407 30.502 30.619 30.759 30.922 31.106 31.312 31.538 31.782 32.041 32.314 32.597 32.887 33.181 33.474 33.763 34.044 34.313 34.566 34.799 35.008 35.191 35.345 35.466 35.554 35.607 35.624 35.604 35.549 35.459 35.336 35.181 34.997 34.787 34.555 34.302 34.033 33.752 33.462 33.167 32.869 32.573 32.282 31.997 31.722 31.459 31.209 30.973 30.754 30.550 30.364 30.195 30.042 29.906 29.786 29.681
25.576 25.652 25.733 25.818 25.909 26.006 26.108 26.215 26.329 26.449 26.575 26.706 26.844 26.988 27.137 27.291 27.450 27.613 27.780 27.950 28.123 28.297 28.472 28.647 28.821 28.993 29.161 29.326 29.485 29.638 29.784 29.921 30.050 30.168 30.276 30.372 30.456 30.528 30.587 30.634 30.667 30.688 30.697 30.694 30.679 30.655 30.621 30.579 30.530 30.476 30.417 30.357 30.296 30.236 30.180 30.129 30.086 30.051 30.028 30.018 30.022 30.044 30.083 30.141 30.220 30.321 30.442 30.586 30.752 30.939 31.146 31.372 31.615 31.873 32.144 32.424 32.711 33.002 33.291 33.577 33.854 34.119 34.368 34.598 34.805 34.985 35.137 35.257 35.344 35.397 35.415 35.398 35.345 35.259 35.139 34.989 34.811 34.608 34.381 34.136 33.875 33.601 33.319 33.032 32.743 32.455 32.171 31.895 31.627 31.371 31.128 30.899 30.686 30.488 30.307 30.143 29.995 29.863 29.746 29.645
25.534 25.606 25.683 25.764 25.850 25.941 26.037 26.138 26.245 26.358 26.476 26.600 26.729 26.863 27.003 27.147 27.295 27.448 27.604 27.763 27.924 28.087 28.250 28.414 28.576 28.736 28.894 29.048 29.197 29.340 29.476 29.605 29.726 29.837 29.938 30.029 30.109 30.178 30.235 30.280 30.313 30.335 30.346 30.346 30.336 30.316 30.288 30.252 30.211 30.164 30.115 30.063 30.011 29.961 29.914 29.873 29.839 29.814 29.799 29.798 29.810 29.839 29.885 29.949 30.033 30.138 30.263 30.409 30.576 30.763 30.970 31.195 31.436 31.691 31.959 32.235 32.518 32.803 33.088 33.368 33.640 33.900 34.144 34.370 34.572 34.750 34.899 35.017 35.104 35.157 35.176 35.160 35.110 35.028 34.913 34.769 34.597 34.400 34.182 33.945 33.692 33.428 33.155 32.877 32.598 32.319 32.045 31.777 31.519 31.271 31.036 30.815 30.609 30.418 30.243 30.084 29.942 29.814 29.702 29.605
25.492 25.561 25.634 25.711 25.792 25.878 25.969 26.064 26.165 26.271 26.381 26.497 26.618 26.744 26.874 27.009 27.148 27.290 27.436 27.584 27.734 27.886 28.038 28.190 28.342 28.491 28.638 28.782 28.921 29.054 29.182 29.303 29.416 29.520 29.616 29.702 29.778 29.843 29.898 29.942 29.975 29.998 30.011 30.013 30.007 29.992 29.969 29.940 29.905 29.866 29.824 29.781 29.738 29.697 29.659 29.626 29.601 29.584 29.578 29.583 29.603 29.638 29.689 29.759 29.847 29.954 30.081 30.229 30.396 30.582 30.787 31.009 31.247 31.498 31.760 32.031 32.308 32.587 32.865 33.139 33.404 33.658 33.896 34.116 34.314 34.488 34.634 34.750 34.835 34.888 34.908 34.894 34.848 34.769 34.660 34.522 34.357 34.169 33.959 33.731 33.489 33.234 32.972 32.705 32.436 32.168 31.904 31.647 31.398 31.160 30.934 30.722 30.524 30.341 30.173 30.021 29.884 29.762 29.655 29.562
25.452 25.518 25.587 25.660 25.737 25.818 25.903 25.993 26.088 26.187 26.291 26.399 26.512 26.630 26.751 26.877 27.007 27.139 27.275 27.413 27.553 27.694 27.836 27.978 28.119 28.258 28.395 28.528 28.658 28.783 28.902 29.015 29.121 29.219 29.309 29.390 29.462 29.525 29.577 29.620 29.654 29.677 29.691 29.697 29.694 29.683 29.666 29.642 29.614 29.582 29.547 29.512 29.476 29.443 29.414 29.389 29.371 29.362 29.363 29.376 29.401 29.441 29.498 29.571 29.661 29.771 29.899 30.046 30.212 30.396 30.598 30.816 31.049 31.294 31.550 31.815 32.084 32.355 32.626 32.892 33.150 33.396 33.628 33.842 34.034 34.203 34.345 34.459 34.542 34.595 34.615 34.604 34.561 34.487 34.383 34.252 34.095 33.915 33.715 33.498 33.266 33.023 32.772 32.517 32.259 32.003 31.751 31.505 31.267 31.040 30.824 30.621 30.432 30.257 30.097 29.952 29.822 29.706 29.604 29.516
25.414 25.476 25.542 25.611 25.683 25.760 25.841 25.925 26.014 26.107 26.204 26.306 26.411 26.521 26.635 26.752 26.872 26.996 27.122 27.251 27.381 27.512 27.644 27.776 27.907 28.036 28.164 28.288 28.409 28.525 28.637 28.742 28.841 28.933 29.018 29.095 29.163 29.223 29.273 29.315 29.349 29.373 29.389 29.397 29.397 29.390 29.378 29.359 29.337 29.311 29.284 29.255 29.228 29.202 29.179 29.162 29.152 29.149 29.156 29.175 29.205 29.250 29.310 29.386 29.478 29.588 29.716 29.862 30.026 30.207 30.404 30.617 30.844 31.083 31.332 31.588 31.849 32.111 32.373 32.630 32.879 33.118 33.342 33.548 33.735 33.898 34.036 34.147 34.228 34.280 34.302 34.293 34.253 34.184 34.087 33.963 33.814 33.644 33.454 33.247 33.027 32.796 32.558 32.315 32.070 31.827 31.587 31.353 31.127 30.911 30.706 30.513 30.334 30.168 30.016 29.879 29.756 29.647 29.551 29.467
25.377 25.436 25.498 25.564 25.633 25.705 25.781 25.860 25.944 26.031 26.122 26.217 26.316 26.418 26.524 26.633 26.745 26.860 26.978 27.097 27.218 27.340 27.462 27.585 27.707 27.827 27.945 28.061 28.174 28.282 28.386 28.485 28.577 28.664 28.743 28.816 28.881 28.938 28.987 29.028 29.061 29.086 29.103 29.113 29.117 29.114 29.105 29.092 29.075 29.056 29.034 29.012 28.991 28.972 28.957 28.946 28.942 28.945 28.958 28.981 29.017 29.065 29.127 29.205 29.298 29.408 29.535 29.678 29.839 30.016 30.208 30.415 30.634 30.865 31.106 31.353 31.604 31.857 32.109 32.357 32.596 32.826 33.041 33.240 33.420 33.577 33.710 33.818 33.898 33.949 33.971 33.964 33.928 33.864 33.773 33.657 33.517 33.357 33.178 32.983 32.775 32.557 32.332 32.102 31.871 31.641 31.414 31.193 30.980 30.776 30.582 30.400 30.231 30.075 29.932 29.803 29.687 29.585 29.495 29.417
25.341 25.397 25.457 25.519 25.584 25.652 25.724 25.799 25.877 25.959 26.044 26.133 26.225 26.320 26.419 26.521 26.625 26.732 26.841 26.952 27.064 27.178 27.291 27.405 27.518 27.630 27.740 27.848 27.952 28.053 28.150 28.242 28.329 28.410 28.485 28.554 28.615 28.670 28.717 28.757 28.790 28.815 28.834 28.846 28.853 28.853 28.849 28.840 28.829 28.815 28.799 28.783 28.768 28.755 28.746 28.741 28.743 28.751 28.769 28.796 28.835 28.886 28.950 29.028 29.122 29.231 29.356 29.496 29.652 29.824 30.010 30.210 30.422 30.644 30.875 31.112 31.353 31.596 31.837 32.074 32.304 32.523 32.730 32.921 33.093 33.244 33.372 33.476 33.554 33.604 33.627 33.622 33.590 33.531 33.447 33.339 33.209 33.058 32.890 32.708 32.512 32.308 32.096 31.881 31.664 31.447 31.235 31.027 30.827 30.635 30.453 30.283 30.124 29.978 29.845 29.724 29.616 29.520 29.437 29.365
25.307 25.360 25.417 25.476 25.537 25.602 25.669 25.740 25.814 25.890 25.970 26.053 26.139 26.228 26.320 26.415 26.512 26.612 26.713 26.816 26.920 27.025 27.131 27.236 27.341 27.445 27.547 27.647 27.745 27.839 27.929 28.015 28.097 28.173 28.243 28.308 28.366 28.419 28.464 28.503 28.536 28.562 28.582 28.597 28.605 28.609 28.609 28.604 28.597 28.588 28.578 28.567 28.558 28.551 28.547 28.547 28.554 28.567 28.588 28.619 28.661 28.713 28.779 28.858 28.950 29.057 29.179 29.316 29.468 29.633 29.812 30.004 30.207 30.420 30.641 30.868 31.098 31.329 31.560 31.786 32.005 32.214 32.411 32.593 32.757 32.902 33.025 33.125 33.200 33.250 33.274 33.271 33.243 33.189 33.112 33.012 32.891 32.751 32.595 32.425 32.243 32.052 31.854 31.653 31.450 31.249 31.050 30.856 30.669 30.491 30.321 30.162 30.015 29.879 29.755 29.643 29.543 29.455 29.378 29.312
25.274 25.325 25.379 25.435 25.493 25.554 25.618 25.684 25.754 25.826 25.901 25.978 26.059 26.142 26.228 26.316 26.406 26.499 26.593 26.688 26.785 26.883 26.981 27.079 27.176 27.272 27.367 27.460 27.551 27.639 27.723 27.803 27.879 27.951 28.017 28.079 28.134 28.184 28.228 28.267 28.299 28.326 28.347 28.363 28.374 28.381 28.384 28.384 28.381 28.376 28.371 28.365 28.361 28.359 28.359 28.365 28.375 28.392 28.417 28.451 28.494 28.549 28.614 28.693 28.784 28.889 29.007 29.139 29.285 29.444 29.616 29.800 29.993 30.196 30.406 30.622 30.841 31.061 31.279 31.494 31.702 31.901 32.088 32.261 32.417 32.555 32.673 32.769 32.842 32.890 32.915 32.914 32.890 32.842 32.771 32.679 32.568 32.439 32.295 32.137 31.968 31.791 31.608 31.422 31.234 31.047 30.862 30.683 30.509 30.344 30.187 30.040 29.904 29.778 29.664 29.561 29.469 29.388 29.318 29.258
25.242 25.291 25.342 25.396 25.451 25.509 25.569 25.632 25.697 25.765 25.835 25.908 25.983 26.061 26.141 26.223 26.307 26.393 26.480 26.569 26.659 26.750 26.841 26.931 27.022 27.111 27.200 27.286 27.370 27.452 27.531 27.606 27.677 27.745 27.807 27.865 27.918 27.966 28.009 28.047 28.079 28.106 28.128 28.146 28.159 28.169 28.175 28.178 28.179 28.178 28.177 28.176 28.176 28.179 28.184 28.193 28.207 28.228 28.256 28.291 28.336 28.391 28.457 28.534 28.623 28.725 28.840 28.967 29.107 29.259 29.423 29.597 29.781 29.974 30.173 30.377 30.584 30.793 30.999 31.202 31.399 31.587 31.764 31.928 32.076 32.207 32.319 32.411 32.481 32.529 32.553 32.555 32.535 32.492 32.428 32.345 32.243 32.125 31.993 31.848 31.693 31.530 31.361 31.189 31.016 30.843 30.673 30.508 30.349 30.196 30.052 29.917 29.792 29.677 29.572 29.478 29.395 29.322 29.258 29.205
25.211 25.259 25.308 25.359 25.411 25.466 25.523 25.582 25.644 25.708 25.773 25.842 25.912 25.985 26.059 26.136 26.214 26.294 26.376 26.458 26.542 26.626 26.710 26.795 26.879 26.962 27.044 27.124 27.203 27.279 27.353 27.423 27.490 27.553 27.613 27.668 27.718 27.764 27.806 27.843 27.875 27.902 27.926 27.945 27.960 27.972 27.981 27.987 27.991 27.995 27.997 28.001 28.005 28.011 28.020 28.032 28.050 28.073 28.103 28.141 28.186 28.242 28.307 28.382 28.469 28.568 28.678 28.800 28.933 29.078 29.233 29.399 29.573 29.755 29.943 30.135 30.331 30.527 30.721 30.912 31.097 31.275 31.442 31.596 31.736 31.860 31.967 32.054 32.122 32.168 32.194 32.198 32.181 32.144 32.087 32.012 31.920 31.812 31.692 31.559 31.418 31.269 31.114 30.957 30.798 30.641 30.485 30.334 30.188 30.049 29.918 29.794 29.680 29.576 29.481 29.396 29.321 29.255 29.198 29.151
25.182 25.228 25.275 25.323 25.374 25.426 25.480 25.536 25.594 25.654 25.716 25.780 25.846 25.914 25.983 26.055 26.128 26.203 26.278 26.355 26.433 26.511 26.590 26.668 26.746 26.824 26.900 26.975 27.048 27.119 27.188 27.254 27.317 27.377 27.433 27.485 27.533 27.578 27.618 27.654 27.686 27.714 27.738 27.758 27.776 27.790 27.801 27.810 27.818 27.824 27.831 27.837 27.845 27.855 27.867 27.883 27.903 27.928 27.960 27.999 28.045 28.100 28.164 28.238 28.322 28.417 28.522 28.638 28.765 28.902 29.049 29.205 29.369 29.540 29.717 29.898 30.081 30.265 30.448 30.627 30.801 30.967 31.124 31.269 31.401 31.519 31.619 31.703 31.767 31.813 31.839 31.845 31.832 31.800 31.750 31.683 31.600 31.503 31.394 31.275 31.146 31.011 30.871 30.728 30.584 30.440 30.299 30.162 30.030 29.904 29.784 29.673 29.570 29.476 29.391 29.315 29.248 29.189 29.139 29.097
25.155 25.198 25.243 25.290 25.338 25.387 25.439 25.492 25.547 25.603 25.662 25.722 25.784 25.848 25.913 25.980 26.048 26.118 26.188 26.260 26.332 26.405 26.478 26.551 26.624 26.696 26.767 26.837 26.905 26.972 27.036 27.098 27.157 27.214 27.267 27.317 27.363 27.406 27.445 27.480 27.512 27.541 27.565 27.587 27.606 27.622 27.635 27.647 27.658 27.667 27.677 27.686 27.697 27.710 27.725 27.743 27.766 27.793 27.826 27.866 27.912 27.966 28.029 28.101 28.182 28.272 28.373 28.483 28.603 28.733 28.871 29.018 29.172 29.332 29.498 29.667 29.839 30.010 30.181 30.349 30.511 30.667 30.813 30.950 31.074 31.184 31.279 31.358 31.421 31.465 31.491 31.500 31.490 31.463 31.420 31.361 31.287 31.201 31.103 30.996 30.880 30.758 30.632 30.503 30.373 30.244 30.117 29.993 29.874 29.761 29.654 29.554 29.462 29.378 29.302 29.235 29.175 29.124 29.081 29.045
25.128 25.170 25.213 25.258 25.304 25.351 25.400 25.450 25.502 25.556 25.611 25.668 25.726 25.786 25.847 25.910 25.974 26.039 26.105 26.172 26.239 26.307 26.375 26.443 26.511 26.578 26.644 26.710 26.774 26.836 26.897 26.955 27.011 27.064 27.115 27.162 27.207 27.248 27.286 27.321 27.353 27.381 27.407 27.429 27.449 27.467 27.483 27.497 27.510 27.522 27.535 27.547 27.561 27.576 27.594 27.614 27.639 27.667 27.701 27.741 27.788 27.841 27.902 27.971 28.049 28.135 28.231 28.335 28.448 28.570 28.700 28.838 28.982 29.132 29.286 29.444 29.604 29.764 29.923 30.079 30.230 30.375 30.512 30.640 30.756 30.860 30.949 31.024 31.084 31.127 31.154 31.164 31.158 31.136 31.099 31.048 30.983 30.907 30.820 30.725 30.622 30.513 30.400 30.285 30.169 30.053 29.940 29.829 29.723 29.622 29.527 29.438 29.357 29.283 29.216 29.157 29.105 29.061 29.024 28.994
25.102 25.143 25.185 25.227 25.271 25.317 25.364 25.412 25.461 25.512 25.564 25.617 25.672 25.729 25.786 25.845 25.905 25.966 26.028 26.090 26.153 26.217 26.280 26.344 26.407 26.470 26.532 26.593 26.653 26.712 26.769 26.824 26.876 26.927 26.975 27.021 27.063 27.103 27.141 27.175 27.206 27.235 27.261 27.285 27.306 27.326 27.343 27.359 27.375 27.389 27.404 27.419 27.435 27.452 27.472 27.495 27.521 27.551 27.585 27.625 27.671 27.723 27.783 27.849 27.924 28.006 28.096 28.195 28.301 28.415 28.537 28.665 28.799 28.939 29.083 29.229 29.378 29.527 29.674 29.819 29.960 30.095 30.223 30.341 30.450 30.547 30.632 30.703 30.759 30.802 30.829 30.841 30.838 30.821 30.790 30.746 30.690 30.624 30.548 30.463 30.372 30.276 30.176 30.074 29.972 29.869 29.769 29.671 29.577 29.488 29.404 29.326 29.255 29.190 29.132 29.081 29.037 28.999 28.968 28.944
25.078 25.117 25.157 25.199 25.241 25.284 25.329 25.375 25.422 25.470 25.520 25.571 25.622 25.676 25.730 25.785 25.841 25.899 25.956 26.015 26.074 26.133 26.193 26.253 26.312 26.371 26.429 26.486 26.543 26.598 26.651 26.703 26.754 26.802 26.848 26.891 26.933 26.971 27.008 27.042 27.073 27.102 27.129 27.153 27.175 27.196 27.215 27.233 27.251 27.267 27.284 27.301 27.319 27.339 27.360 27.385 27.412 27.443 27.478 27.517 27.563 27.614 27.671 27.735 27.806 27.884 27.969 28.062 28.161 28.268 28.382 28.501 28.626 28.756 28.889 29.025 29.162 29.300 29.437 29.571 29.702 29.827 29.945 30.056 30.157 30.248 30.327 30.395 30.449 30.490 30.518 30.532 30.532 30.520 30.494 30.458 30.410 30.352 30.286 30.213 30.134 30.050 29.962 29.873 29.783 29.693 29.605 29.519 29.437 29.359 29.286 29.219 29.157 29.101 29.051 29.008 28.971 28.940 28.915 28.895
25.054 25.092 25.131 25.171 25.212 25.254 25.297 25.340 25.385 25.431 25.479 25.527 25.576 25.626 25.677 25.730 25.783 25.837 25.891 25.946 26.001 26.057 26.113 26.169 26.225 26.280 26.335 26.389 26.442 26.494 26.545 26.594 26.642 26.687 26.731 26.773 26.813 26.851 26.887 26.920 26.951 26.980 27.007 27.033 27.056 27.078 27.099 27.118 27.137 27.156 27.175 27.194 27.214 27.235 27.258 27.283 27.311 27.343 27.378 27.418 27.462 27.512 27.567 27.628 27.695 27.769 27.850 27.936 28.030 28.129 28.235 28.346 28.462 28.582 28.705 28.831 28.958 29.085 29.212 29.336 29.457 29.572 29.682 29.785 29.879 29.964 30.039 30.102 30.154 30.194 30.222 30.238 30.241 30.233 30.213 30.183 30.143 30.095 30.038 29.975 29.907 29.834 29.758 29.681 29.603 29.525 29.448 29.374 29.303 29.236 29.174 29.116 29.063 29.016 28.974 28.938 28.908 28.883 28.863 28.849
25.031 25.068 25.106 25.145 25.184 25.225 25.266 25.308 25.351 25.395 25.440 25.486 25.533 25.580 25.629 25.678 25.729 25.779 25.831 25.883 25.935 25.987 26.040 26.093 26.145 26.197 26.249 26.300 26.350 26.399 26.447 26.494 26.540 26.583 26.626 26.666 26.705 26.742 26.776 26.809 26.841 26.870 26.897 26.923 26.948 26.971 26.993 27.014 27.034 27.054 27.075 27.095 27.117 27.139 27.164 27.190 27.219 27.251 27.286 27.325 27.369 27.417 27.470 27.528 27.592 27.662 27.738 27.819 27.906 27.999 28.097 28.200 28.307 28.418 28.532 28.648 28.766 28.883 29.000 29.114 29.225 29.332 29.434 29.529 29.617 29.696 29.766 29.827 29.876 29.915 29.944 29.961 29.967 29.963 29.948 29.924 29.892 29.851 29.804 29.750 29.692 29.630 29.566 29.499 29.432 29.366 29.301 29.237 29.177 29.120 29.067 29.018 28.974 28.935 28.901 28.872 28.847 28.828 28.814 28.804
25.009 25.045 25.082 25.120 25.158 25.197 25.237 25.278 25.319 25.361 25.404 25.448 25.493 25.538 25.584 25.631 25.679 25.727 25.775 25.824 25.874 25.923 25.973 26.023 26.072 26.122 26.170 26.219 26.266 26.313 26.359 26.403 26.447 26.489 26.530 26.569 26.606 26.642 26.676 26.709 26.740 26.769 26.797 26.824 26.849 26.873 26.896 26.918 26.940 26.962 26.983 27.006 27.028 27.052 27.078 27.105 27.134 27.166 27.202 27.240 27.283 27.329 27.380 27.436 27.497 27.563 27.634 27.710 27.791 27.878 27.968 28.064 28.163 28.265 28.370 28.477 28.585 28.693 28.801 28.906 29.009 29.107 29.201 29.290 29.371 29.445 29.511 29.568 29.616 29.654 29.682 29.701 29.710 29.709 29.699 29.681 29.656 29.623 29.584 29.540 29.491 29.439 29.385 29.329 29.272 29.216 29.161 29.108 29.058 29.010 28.966 28.926 28.890 28.858 28.831 28.808 28.790 28.776 28.767 28.761
24.988 25.023 25.059 25.096 25.133 25.171 25.209 25.249 25.289 25.329 25.370 25.412 25.455 25.499 25.543 25.587 25.632 25.678 25.724 25.771 25.818 25.865 25.912 25.959 26.006 26.053 26.099 26.145 26.190 26.235 26.278 26.321 26.363 26.403 26.442 26.480 26.517 26.552 26.586 26.618 26.649 26.678 26.707 26.734 26.759 26.784 26.808 26.832 26.855 26.878 26.901 26.924 26.948 26.973 26.999 27.027 27.057 27.089 27.124 27.162 27.203 27.248 27.297 27.351 27.408 27.470 27.537 27.608 27.684 27.764 27.849 27.937 28.028 28.123 28.219 28.318 28.417 28.517 28.615 28.712 28.807 28.898 28.985 29.066 29.142 29.211 29.273 29.327 29.373 29.410 29.439 29.458 29.470 29.473 29.468 29.455 29.436 29.410 29.379 29.343 29.303 29.260 29.215 29.169 29.123 29.076 29.031 28.987 28.946 28.907 28.872 28.839 28.811 28.786 28.765 28.749 28.736 28.727 28.722 28.720
24.968 25.002 25.037 25.073 25.109 25.146 25.183 25.221 25.260 25.299 25.339 25.379 25.420 25.462 25.504 25.547 25.590 25.633 25.677 25.722 25.766 25.811 25.856 25.901 25.945 25.990 26.034 26.078 26.121 26.163 26.205 26.246 26.286 26.325 26.364 26.400 26.436 26.471 26.504 26.536 26.566 26.596 26.625 26.652 26.678 26.704 26.729 26.753 26.777 26.801 26.825 26.849 26.874 26.900 26.927 26.956 26.986 27.018 27.053 27.090 27.130 27.174 27.221 27.272 27.326 27.385 27.448 27.514 27.585 27.659 27.738 27.819 27.904 27.991 28.080 28.170 28.261 28.353 28.443 28.533 28.620 28.704 28.784 28.860 28.930 28.995 29.053 29.104 29.148 29.184 29.213 29.234 29.248 29.254 29.253 29.245 29.232 29.212 29.188 29.160 29.129 29.095 29.059 29.021 28.984 28.946 28.910 28.875 28.842 28.811 28.783 28.758 28.737 28.718 28.704 28.692 28.685 28.680 28.679 28.681
24.948 24.982 25.016 25.051 25.087 25.122 25.159 25.196 25.233 25.271 25.309 25.348 25.388 25.428 25.468 25.509 25.550 25.592 25.634 25.677 25.719 25.762 25.805 25.847 25.890 25.933 25.975 26.017 26.058 26.099 26.139 26.179 26.217 26.255 26.292 26.328 26.363 26.397 26.430 26.461 26.492 26.522 26.550 26.578 26.605 26.631 26.657 26.682 26.707 26.732 26.757 26.782 26.808 26.834 26.862 26.891 26.921 26.953 26.988 27.024 27.064 27.106 27.151 27.199 27.251 27.306 27.365 27.428 27.493 27.563 27.635 27.710 27.788 27.869 27.951 28.034 28.118 28.202 28.285 28.367 28.447 28.525 28.599 28.669 28.735 28.795 28.850 28.898 28.941 28.976 29.005 29.027 29.043 29.052 29.055 29.052 29.044 29.030 29.013 28.992 28.968 28.942 28.914 28.885 28.855 28.826 28.798 28.771 28.745 28.722 28.701 28.683 28.668 28.655 28.646 28.640 28.636 28.636 28.639 28.644
24.929 24.962 24.996 25.030 25.065 25.100 25.135 25.171 25.207 25.244 25.281 25.319 25.357 25.396 25.435 25.474 25.514 25.554 25.594 25.635 25.676 25.717 25.758 25.799 25.840 25.880 25.921 25.961 26.001 26.040 26.079 26.117 26.155 26.191 26.227 26.262 26.297 26.330 26.362 26.394 26.424 26.454 26.483 26.511 26.539 26.565 26.592 26.618 26.643 26.669 26.694 26.720 26.747 26.774 26.802 26.831 26.862 26.894 26.928 26.964 27.002 27.043 27.086 27.133 27.182 27.234 27.290 27.348 27.409 27.474 27.541 27.611 27.683 27.757 27.832 27.909 27.986 28.063 28.140 28.215 28.289 28.361 28.429 28.495 28.556 28.612 28.664 28.710 28.751 28.786 28.815 28.838 28.855 28.867 28.873 28.875 28.871 28.863 28.852 28.837 28.820 28.801 28.780 28.759 28.737 28.715 28.694 28.674 28.656 28.639 28.625 28.613 28.603 28.596 28.592 28.590 28.591 28.595 28.601 28.610
24.910 24.943 24.976 25.010 25.044 25.078 25.113 25.148 25.183 25.219 25.255 25.292 25.329 25.366 25.404 25.442 25.480 25.519 25.558 25.597 25.636 25.675 25.715 25.754 25.794 25.833 25.872 25.911 25.949 25.987 26.024 26.061 26.098 26.134 26.169 26.203 26.237 26.270 26.302 26.333 26.363 26.393 26.422 26.451 26.478 26.506 26.533 26.559 26.585 26.612 26.638 26.665 26.692 26.719 26.748 26.777 26.808 26.840 26.873 26.909 26.946 26.986 27.027 27.072 27.118 27.168 27.220 27.275 27.332 27.392 27.455 27.519 27.586 27.654 27.724 27.794 27.865 27.937 28.007 28.077 28.145 28.211 28.275 28.335 28.392 28.446 28.494 28.539 28.578 28.612 28.641 28.665 28.685 28.699 28.708 28.713 28.714 28.711 28.705 28.696 28.685 28.673 28.658 28.644 28.629 28.614 28.599 28.586 28.574 28.563 28.555 28.548 28.544 28.542 28.542 28.544 28.549 28.556 28.565 28.577
24.892 24.924 24.957 24.990 25.023 25.057 25.091 25.125 25.160 25.195 25.230 25.266 25.302 25.338 25.375 25.412 25.449 25.486 25.524 25.562 25.599 25.637 25.675 25.714 25.751 25.789 25.827 25.864 25.902 25.938 25.975 26.011 26.046 26.081 26.116 26.149 26.183 26.215 26.247 26.278 26.308 26.338 26.367 26.396 26.424 26.452 26.479 26.506 26.533 26.560 26.587 26.614 26.641 26.669 26.698 26.728 26.758 26.790 26.823 26.858 26.895 26.933 26.973 27.016 27.060 27.107 27.157 27.208 27.262 27.318 27.376 27.436 27.498 27.561 27.625 27.690 27.756 27.821 27.887 27.951 28.014 28.075 28.134 28.191 28.244 28.294 28.341 28.383 28.421 28.455 28.484 28.509 28.530 28.546 28.558 28.566 28.571 28.573 28.572 28.568 28.563 28.556 28.548 28.539 28.530 28.521 28.513 28.505 28.499 28.494 28.490 28.489 28.489 28.491 28.495 28.501 28.509 28.520 28.532 28.546
